!!!!SEGMENT: pl-kk--kk-i-325_casali-giovanni-battista--nisi-dominus.krn
!!!cenid: 17xx:2137
!!!COM: Casali, Giovanni Battista
!!!COM-rismID: pe30000607
!!!CDT: 1715-1792/07/06
!!!CNT: Italian
!!!OTL: Nisi Dominus
!!!PDT:
!!!AGN: Sacred
!!!YEC: Copyright 2022 Narodowy Instytut Fryderyka Chopina (https://polishscores.org)
!!!YEM: License CC-BY-4.0 (https://creativecommons.org/licenses/by/4.0)
!!!SMS-siglum: PL-Kk
!!!SMS-shelfmark: Kk.I.325
!!!SMS-shelfwork: W
!!!SMS-variant:
!!!SMS-altvar:
!!!NIFC-rismSourceID: 1001145921
!!!NIFC-rismChildID: 1001145921
!!!NIFC-islandoraID: pl-kk:5443
!!!URL-pdf-islandora: https://repozytorium.nifc.pl/islandora/object/pl-kk%3A5443/datastream/PDF/view
!!!URL-scan: https://polish.musicsources.pl/pl/lokalizacje/galeria/rekopisy/5944 @EN{Scan on Polish Music Sources Website} @PL{Skany w portalu Dziedzictwo Muzyki Polskiej w otwartym dostępie}
!!!IIIF:
!!!ONB-nifc:
!!!OMD:
!!!OMD-mod: Allegretto
!!!AIN: 1 alto 1 bass 1 organ 2 soprn 1 tenor
!!!key: A
**kern	**kern	**text	**dynam	**kern	**text	**dynam	**kern	**text	**dynam	**kern	**text	**dynam	**kern	**text	**dynam
*	*group1	*	*	*group1	*	*	*group1	*	*	*group1	*	*	*group1	*	*
*part6	*part5	*	*	*part4	*	*	*part3	*	*	*part2	*	*	*part1	*	*
*staff6	*staff5	*	*	*staff4	*	*	*staff3	*	*	*staff2	*	*	*staff1	*	*
*I"Organo	*I"Baſso	*	*	*I"Tenore	*	*	*I"Alto	*	*	*I"Canto sdo di con.to con pieni	*	*	*I"Canto pmo di Con.to con pieni	*	*
*mI"Organo	*mI"Basso	*	*	*mI"Tenore	*	*	*mI"Alto	*	*	*mI"Soprano II	*	*	*mI"Soprano I	*	*
*I'org	*I'B	*	*	*I'T	*	*	*I'A	*	*	*I'S 2	*	*	*I'S 1	*	*
*Iorgan	*Ibass	*	*	*Itenor	*	*	*Ialto	*	*	*Isoprn	*	*	*Isoprn	*	*
*ICklav	*ICvox	*	*	*ICvox	*	*	*ICvox	*	*	*ICvox	*	*	*ICvox	*	*
*IGcont	*IGcoro	*	*	*IGcoro	*	*	*IGcoro	*	*	*IGcoro	*	*	*IGcoro	*	*
*clefF4	*clefF4	*	*	*clefC4	*	*	*clefC3	*	*	*clefC1	*	*	*clefC1	*	*
*	*	*	*	*mclefGv2	*	*	*mclefG2	*	*	*mclefG2	*	*	*mclefG2	*	*
*k[f#c#g#]	*k[f#c#g#]	*	*	*k[f#c#g#]	*	*	*k[f#c#g#]	*	*	*k[c#g#f#]	*	*	*k[c#g#f#]	*	*
*	*	*	*	*	*	*	*	*	*	*mk[f#c#g#]	*	*	*mk[f#c#g#]	*	*
*A:	*A:	*	*	*A:	*	*	*A:	*	*	*A:	*	*	*A:	*	*
*M4/4	*M4/4	*	*	*M4/4	*	*	*M4/4	*	*	*M4/4	*	*	*M4/4	*	*
*met(c)	*met(c)	*	*	*met(c)	*	*	*met(c)	*	*	*met(c)	*	*	*met(c)	*	*
*mmet(c)	*mmet(c)	*	*	*mmet(c)	*	*	*mmet(c)	*	*	*mmet(c)	*	*	*mmet(c)	*	*
!LO:MO:mod=*null:null	!LO:MO:mod=*null:null	!	!	!LO:MO:mod=*null:null	!	!	!LO:MO:mod=*null:null	!	!	!LO:MO:mod=*null:null	!	!	!LO:MO:mod=*null:null	!	!
*all\right	*all\right	*	*	*all\right	*	*	*all\right	*	*	*all\right	*	*	*all\right	*	*
*MM100	*MM100	*	*	*MM100	*	*	*MM100	*	*	*MM100	*	*	*MM100	*	*
=1	=1	=1	=1	=1	=1	=1	=1	=1	=1	=1	=1	=1	=1	=1	=1
!LO:TX:a:i:t=Allegretto:rj:mod=	!	!	!	!	!	!	!	!	!	!	!	!	!	!	!
!LO:TX:a:i:t=Soli:rj:mod=	!LO:TX:b:i:t=19:mod=	!	!	!LO:TX:b:i:t=19:mod=	!	!	!LO:TX:b:i:t=19:mod=	!	!	!	!	!	!LO:TX:a:i:t=Allegretto:rj:mod=	!	!
8A\L	00r	.	.	00r	.	.	00r	.	.	2r	.	.	4.a\	Ni-	.
8A\	.	.	.	.	.	.	.	.	.	.	.	.	.	.	.
8A\	.	.	.	.	.	.	.	.	.	.	.	.	.	.	.
8A\J	.	.	.	.	.	.	.	.	.	.	.	.	8dd\	-si	.
8A\L	.	.	.	.	.	.	.	.	.	4.a\	Ni-	.	16cc#\LL	Do-	.
.	.	.	.	.	.	.	.	.	.	.	.	.	16b\JJ	.	.
8A\	.	.	.	.	.	.	.	.	.	.	.	.	4a\	.	.
8A\	.	.	.	.	.	.	.	.	.	.	.	.	.	.	.
8A\J	.	.	.	.	.	.	.	.	.	8dd\	-si	.	8ff#\	.	.
=2	=2	=2	=2	=2	=2	=2	=2	=2	=2	=2	=2	=2	=2	=2	=2
!	!	!	!	!	!	!	!	!	!	!	!LO:MO:mod=Do-	!	!	!	!
8A\L	.	.	.	.	.	.	.	.	.	16cc#\LL	do-	.	16ee\LL	.	.
.	.	.	.	.	.	.	.	.	.	16b\JJ	.	.	16dd\JJ	.	.
8A\	.	.	.	.	.	.	.	.	.	4a\	.	.	4cc#\	.	.
8A\	.	.	.	.	.	.	.	.	.	.	.	.	.	.	.
8A\J	.	.	.	.	.	.	.	.	.	8ff#\	.	.	8dd\	.	.
8A\L	.	.	.	.	.	.	.	.	.	16ee\LL	.	.	8cc#\	.	.
.	.	.	.	.	.	.	.	.	.	16dd\JJ	.	.	.	.	.
8A\	.	.	.	.	.	.	.	.	.	4cc#\	.	.	4ee\	.	.
8E\	.	.	.	.	.	.	.	.	.	.	.	.	.	.	.
8E\J	.	.	.	.	.	.	.	.	.	8b\	-mi-	.	8dd\	-mi-	.
!	!	!	!	!	!	!	!	!	!	!	!	!	!LO:LB:g=original	!	!
=3	=3	=3	=3	=3	=3	=3	=3	=3	=3	=3	=3	=3	=3	=3	=3
8A\L	.	.	.	.	.	.	.	.	.	4a\	-nus	.	8cc#\	-nus	.
8A\	.	.	.	.	.	.	.	.	.	.	.	.	8aa\	ae-	.
8A\	.	.	.	.	.	.	.	.	.	4r	.	.	8ee\	-di-	.
8A\J	.	.	.	.	.	.	.	.	.	.	.	.	8ff#\	-fi-	.
!LO:LB:g=original	!	!	!	!	!	!	!	!	!	!	!	!	!	!	!
8A\L	.	.	.	.	.	.	.	.	.	8r	.	.	16ee\LL	-ca-	.
.	.	.	.	.	.	.	.	.	.	.	.	.	16dd\JJ	.	.
8A\	.	.	.	.	.	.	.	.	.	8aa\	ae-	.	4cc#\	.	.
8A\	.	.	.	.	.	.	.	.	.	8ee\	-di-	.	.	.	.
8A\J	.	.	.	.	.	.	.	.	.	8ff#\	-fi-	.	8dd\	.	.
!	!	!	!	!	!	!	!	!	!	!LO:LB:g=original	!	!	!	!	!
=4	=4	=4	=4	=4	=4	=4	=4	=4	=4	=4	=4	=4	=4	=4	=4
8A\L	.	.	.	.	.	.	.	.	.	16ee\LL	-ca-	.	8cc#\	.	.
.	.	.	.	.	.	.	.	.	.	16dd\JJ	.	.	.	.	.
8A\	.	.	.	.	.	.	.	.	.	4cc#\	.	.	4ee\	.	.
8A\	.	.	.	.	.	.	.	.	.	.	.	.	.	.	.
8A\J	.	.	.	.	.	.	.	.	.	8dd\	.	.	8ff#\	.	.
4A\	.	.	.	.	.	.	.	.	.	8cc#\L	.	.	8ee\L	.	.
.	.	.	.	.	.	.	.	.	.	8a\J	.	.	8cc#\J	.	.
8D\L	.	.	.	.	.	.	.	.	.	8b\	-ve-	.	8dd\	ve-	.
8E\J	.	.	.	.	.	.	.	.	.	8g#\	-rit	.	8b\	-rit	.
!	!	!	!	!	!	!	!	!	!	!	!	!	!LO:LB:g=original	!	!
=5	=5	=5	=5	=5	=5	=5	=5	=5	=5	=5	=5	=5	=5	=5	=5
!LO:TX:t=P:problem=mixed beam	!	!	!	!	!	!	!	!	!	!	!	!	!	!	!
8AA/L	00r	.	.	00r	.	.	00r	.	.	8a\	do-	.	16cc#\LL	do-	.
.	.	.	.	.	.	.	.	.	.	.	.	.	16b\JJ	.	.
!	!	!	!	!	!	!	!	!	!	!	!	!	!	!LO:MO:mod=-mum	!
8A\	.	.	.	.	.	.	.	.	.	8e/	-mum	.	8a\	-m(um)	.
8A\	.	.	.	.	.	.	.	.	.	4r	.	.	8r	.	.
8A\J	.	.	.	.	.	.	.	.	.	.	.	.	8cc#\	in	.
8A\L	.	.	.	.	.	.	.	.	.	4r	.	.	8ff#\	va-	.
!	!	!	!	!	!	!	!	!	!	!	!	!	!	!LO:MO:mod=-num	!
8A\	.	.	.	.	.	.	.	.	.	.	.	.	16aa\	-n(um)	.
!	!	!	!	!	!	!	!	!	!	!	!	!	!	!LO:MO:mod=la-	!
.	.	.	.	.	.	.	.	.	.	.	.	.	16gg#\	La-	.
8A\	.	.	.	.	.	.	.	.	.	8r	.	.	8ff#\	-bo-	.
8A\J	.	.	.	.	.	.	.	.	.	8cc#\	in	.	8ee\	-ra-	.
!LO:LB:g=original	!	!	!	!	!	!	!	!	!	!	!	!	!	!	!
=6	=6	=6	=6	=6	=6	=6	=6	=6	=6	=6	=6	=6	=6	=6	=6
8B\L	.	.	.	.	.	.	.	.	.	8b\	va-	.	16dd#X\LL	-ve-	.
.	.	.	.	.	.	.	.	.	.	.	.	.	16ee\JJ	.	.
!	!	!	!	!	!	!	!	!	!	!	!LO:MO:mod=-num	!	!	!	!
8B\J	.	.	.	.	.	.	.	.	.	16b\	-n(um)	.	8ff#\	-runt	.
!	!	!	!	!	!	!	!	!	!	!	!LO:MO:mod=la-	!	!	!	!
.	.	.	.	.	.	.	.	.	.	16cc#\	La-	.	.	.	.
8D#X\L	.	.	.	.	.	.	.	.	.	8b\	-bo-	.	4r	.	.
8D#\J	.	.	.	.	.	.	.	.	.	8a\	-ra-	.	.	.	.
!	!	!	!	!	!	!	!	!	!	!LO:LB:g=original	!	!	!LO:LB:g=original	!	!
8E\L	.	.	.	.	.	.	.	.	.	16g#\LL	-ve-	.	4.b\	qui	.
.	.	.	.	.	.	.	.	.	.	16a\JJ	-runt	.	.	.	.
8E\	.	.	.	.	.	.	.	.	.	8b\	.	.	.	.	.
8E\	.	.	.	.	.	.	.	.	.	4r	.	.	.	.	.
8E\J	.	.	.	.	.	.	.	.	.	.	.	.	8ee\	ae-	.
=7	=7	=7	=7	=7	=7	=7	=7	=7	=7	=7	=7	=7	=7	=7	=7
8BB/L	.	.	.	.	.	.	.	.	.	4.b\	qui	.	16dd#X\LL	-di-	.
.	.	.	.	.	.	.	.	.	.	.	.	.	16cc#\JJ	.	.
8BB/	.	.	.	.	.	.	.	.	.	.	.	.	4b\	-fi-	.
8BB/	.	.	.	.	.	.	.	.	.	.	.	.	.	.	.
8BB/J	.	.	.	.	.	.	.	.	.	8ee\	ae-	.	8gg#\	-cant	.
8BB/L	.	.	.	.	.	.	.	.	.	16dd#X\LL	-di-	.	16ff#\LL	e-	.
.	.	.	.	.	.	.	.	.	.	16cc#\JJ	.	.	16ee\JJ	.	.
8BB/	.	.	.	.	.	.	.	.	.	4b\	-fi-	.	4dd#X\	.	.
8BB/	.	.	.	.	.	.	.	.	.	.	.	.	.	.	.
8BB/J	.	.	.	.	.	.	.	.	.	8gg#\	-cant	.	8ee\	.	.
=8	=8	=8	=8	=8	=8	=8	=8	=8	=8	=8	=8	=8	=8	=8	=8
8BB/L	.	.	.	.	.	.	.	.	.	16ff#\LL	e-	.	16dd#X\LL	-am	.
.	.	.	.	.	.	.	.	.	.	16ee\JJ	.	.	16cc#\JJ	.	.
8BB/J	.	.	.	.	.	.	.	.	.	8dd#X\	-am	.	8b\	.	.
8BB/L	.	.	.	.	.	.	.	.	.	8dd#\	qui	.	8ff#\	qui	.
8BB/J	.	.	.	.	.	.	.	.	.	8ff#\	ae-	.	8aa\	ae-	.
!LO:LB:g=original	!	!	!	!	!	!	!	!	!	!	!	!	!LO:LB:g=original	!	!
8E\L	.	.	.	.	.	.	.	.	.	4ee\	-di-	.	4gg#\	-di-	.
8E\J	.	.	.	.	.	.	.	.	.	.	.	.	.	.	.
8A\L	.	.	.	.	.	.	.	.	.	8cc#\	-fi-	.	8aa\	-fi-	.
8A\J	.	.	.	.	.	.	.	.	.	8ff#\	-cant	.	8ff#\	-cant	.
!	!	!	!	!	!	!	!	!	!	!LO:LB:g=original	!	!	!	!	!
=9	=9	=9	=9	=9	=9	=9	=9	=9	=9	=9	=9	=9	=9	=9	=9
!LO:TX:t=P:problem=mixed beam	!	!	!	!	!	!	!	!	!	!	!	!	!	!	!
8B\L	00r	.	.	00r	.	.	00r	.	.	(>4ee\	e-	.	(>4gg#\	e-	.
8B\	.	.	.	.	.	.	.	.	.	.	.	.	.	.	.
8BB/	.	.	.	.	.	.	.	.	.	4dd#X\)	.	.	4ff#\)	.	.
8BB/J	.	.	.	.	.	.	.	.	.	.	.	.	.	.	.
8E\L	.	.	.	.	.	.	.	.	.	4ee\	-am	.	4ee\	-am	.
8D#X\	.	.	.	.	.	.	.	.	.	.	.	.	.	.	.
8C#\	.	.	.	.	.	.	.	.	.	8ee\	qui	.	8gg#\	qui	.
8BB\J	.	.	.	.	.	.	.	.	.	8ee\	ae-	.	8gg#\	ae-	.
=10	=10	=10	=10	=10	=10	=10	=10	=10	=10	=10	=10	=10	=10	=10	=10
8AA/L	.	.	.	.	.	.	.	.	.	8ee\	-di-	.	8gg#\	-di-	.
8AA/J	.	.	.	.	.	.	.	.	.	4cc#\	-fi-	.	4aa\	-fi-	.
8BB/L	.	.	.	.	.	.	.	.	.	.	.	.	.	.	.
8BB/J	.	.	.	.	.	.	.	.	.	16b\LL	-cant	.	16gg#\LL	-cant	.
.	.	.	.	.	.	.	.	.	.	16a\JJ	.	.	16ff#\JJ	.	.
!	!	!	!	!	!	!	!	!	!	!	!	!	!LO:LB:g=original	!	!
8C#/L	.	.	.	.	.	.	.	.	.	16g#\LL	e-	.	16ee\LL	e-	.
.	.	.	.	.	.	.	.	.	.	16f#\	.	.	16dd#X\	.	.
8GG#/J	.	.	.	.	.	.	.	.	.	16g#\	.	.	16ee\	.	.
.	.	.	.	.	.	.	.	.	.	16b\JJ	.	.	16gg#\JJ	.	.
8AA/L	.	.	.	.	.	.	.	.	.	16a\LL	.	.	16ff#\LL	.	.
.	.	.	.	.	.	.	.	.	.	16g#\	.	.	16ee\	.	.
8BB/J	.	.	.	.	.	.	.	.	.	16g#\	.	.	16ee\	.	.
.	.	.	.	.	.	.	.	.	.	16f#\JJ	.	.	16dd#X\JJ	.	.
!LO:LB:g=original	!	!	!	!	!	!	!	!	!	!LO:LB:g=original	!	!	!	!	!
=11	=11	=11	=11	=11	=11	=11	=11	=11	=11	=11	=11	=11	=11	=11	=11
8C#\L	.	.	.	.	.	.	.	.	.	8e\L	.	.	[>4ee\	.	.
8A\	.	.	.	.	.	.	.	.	.	8cc#\	.	.	.	.	.
8G#\	.	.	.	.	.	.	.	.	.	8b\	.	.	16ee\LL]	.	.
.	.	.	.	.	.	.	.	.	.	.	.	.	16aa\	.	.
8A\J	.	.	.	.	.	.	.	.	.	8a\J	.	.	16gg#\	.	.
.	.	.	.	.	.	.	.	.	.	.	.	.	16ff#\JJ	.	.
4B\	.	.	.	.	.	.	.	.	.	4g#\	.	.	4ee\	.	.
4BB/	.	.	.	.	.	.	.	.	.	4f#\	.	.	4dd#X\	.	.
=12	=12	=12	=12	=12	=12	=12	=12	=12	=12	=12	=12	=12	=12	=12	=12
8E\L	.	.	.	.	.	.	.	.	.	4e/	-am	.	4ee\	-am	.
8F#\	.	.	.	.	.	.	.	.	.	.	.	.	.	.	.
8G#\	.	.	.	.	.	.	.	.	.	4r	.	.	8ee\	ni-	.
8E\J	.	.	.	.	.	.	.	.	.	.	.	.	8ddn\	-si	.
!	!	!	!	!	!	!	!	!	!	!	!	!	!LO:LB:g=original	!LO:MO:mod=Do-	!
8A\L	.	.	.	.	.	.	.	.	.	4r	.	.	8cc#\	do-	.
8A\J	.	.	.	.	.	.	.	.	.	.	.	.	4cc#\	-mi-	.
8E\L	.	.	.	.	.	.	.	.	.	8ee\	ni-	.	.	.	.
!	!	!	!	!	!	!	!	!	!	!LO:SIC:o=8ddn\	!	!	!	!	!
8E\J	.	.	.	.	.	.	.	.	.	8dd	-si	.	8b\	-nus	.
=13	=13	=13	=13	=13	=13	=13	=13	=13	=13	=13	=13	=13	=13	=13	=13
!	!	!	!	!	!	!	!	!	!	!	!LO:MO:mod=Do-	!	!	!	!
8A\L	00r	.	.	00r	.	.	00r	.	.	8cc#\	do-	.	8a\	cus-	.
8A\J	.	.	.	.	.	.	.	.	.	4cc#\	-mi-	.	4ee\	-to-	.
8E\L	.	.	.	.	.	.	.	.	.	.	.	.	.	.	.
8E\J	.	.	.	.	.	.	.	.	.	8b\	-nus	.	8dd\	.	.
!LO:LB:g=original	!	!	!	!	!	!	!	!	!	!	!	!	!	!	!
8A\L	.	.	.	.	.	.	.	.	.	8a\	cus-	.	8cc#\	-di-	.
8A\J	.	.	.	.	.	.	.	.	.	4ee\	-to-	.	4cc#\	-e-	.
8E\L	.	.	.	.	.	.	.	.	.	.	.	.	.	.	.
8E\J	.	.	.	.	.	.	.	.	.	8dd\	.	.	8b\	-rit	.
!	!	!	!	!	!	!	!	!	!	!LO:LB:g=original	!	!	!	!	!
=14	=14	=14	=14	=14	=14	=14	=14	=14	=14	=14	=14	=14	=14	=14	=14
8A\L	.	.	.	.	.	.	.	.	.	8cc#\	-di-	.	8a\	ci-	.
8A\J	.	.	.	.	.	.	.	.	.	4cc#\	-e-	.	(>4ee\	-vi-	.
8E\L	.	.	.	.	.	.	.	.	.	.	.	.	.	.	.
8E\J	.	.	.	.	.	.	.	.	.	8b\	-rit	.	8dd\)	.	.
!	!	!	!	!	!	!	!	!	!	!	!	!	!LO:LB:g=original	!	!
8A\L	.	.	.	.	.	.	.	.	.	8a\	ci-	.	4.cc#\	-ta-	.
8A\J	.	.	.	.	.	.	.	.	.	(>4ee\	-vi-	.	.	.	.
8E\L	.	.	.	.	.	.	.	.	.	.	.	.	.	.	.
8E\J	.	.	.	.	.	.	.	.	.	8dd\)	.	.	8b\	.	.
=15	=15	=15	=15	=15	=15	=15	=15	=15	=15	=15	=15	=15	=15	=15	=15
8A\L	.	.	.	.	.	.	.	.	.	8cc#\L	-ta-	.	8a\L	.	.
8E\	.	.	.	.	.	.	.	.	.	8b\	.	.	8g#\	.	.
8A\	.	.	.	.	.	.	.	.	.	8cc#\	.	.	8a\	.	.
8G#\J	.	.	.	.	.	.	.	.	.	8b\J	.	.	8dd\J	.	.
!	!	!	!	!	!	!	!	!	!	!LO:MO:mod=*null:null	!	!	!LO:MO:mod=*null:null	!	!
*	*	*	*	*	*	*	*	*	*	*2\right	*	*	*2\right	*	*
8A\L	.	.	.	.	.	.	.	.	.	2a\	.	.	2cc#\	.	.
8A\	.	.	.	.	.	.	.	.	.	.	.	.	.	.	.
8D#X\	.	.	.	.	.	.	.	.	.	.	.	.	.	.	.
8D#\J	.	.	.	.	.	.	.	.	.	.	.	.	.	.	.
!LO:LB:g=original	!	!	!	!	!	!	!	!	!	!	!	!	!	!	!
=16	=16	=16	=16	=16	=16	=16	=16	=16	=16	=16	=16	=16	=16	=16	=16
4E\	.	.	.	.	.	.	.	.	.	4g#\	-tem	.	4b\	-tem	.
4G#\	.	.	.	.	.	.	.	.	.	4r	.	.	8b\	fru-	.
.	.	.	.	.	.	.	.	.	.	.	.	.	8dd\	-stra	.
4A\	.	.	.	.	.	.	.	.	.	4r	.	.	8.cc#\	vi-	.
.	.	.	.	.	.	.	.	.	.	.	.	.	16cc#\	-gi-	.
4F#\	.	.	.	.	.	.	.	.	.	8b\	fru-	.	4b\	-lat	.
.	.	.	.	.	.	.	.	.	.	8dd\	-stra	.	.	.	.
!	!	!	!	!	!	!	!	!	!	!LO:LB:g=original	!	!	!LO:LB:g=original	!	!
=17	=17	=17	=17	=17	=17	=17	=17	=17	=17	=17	=17	=17	=17	=17	=17
4A\	0r	.	.	0r	.	.	0r	.	.	8.cc#\	vi-	.	2r	.	.
.	.	.	.	.	.	.	.	.	.	16cc#\	-gi-	.	.	.	.
4E\	.	.	.	.	.	.	.	.	.	4b\	-lat	.	.	.	.
8G#\L	.	.	.	.	.	.	.	.	.	4.b\	qui	.	4.dd\	qui	.
8G#\	.	.	.	.	.	.	.	.	.	.	.	.	.	.	.
8G#\	.	.	.	.	.	.	.	.	.	.	.	.	.	.	.
8G#\J	.	.	.	.	.	.	.	.	.	8b\	cus-	.	8dd\	cus-	.
=18	=18	=18	=18	=18	=18	=18	=18	=18	=18	=18	=18	=18	=18	=18	=18
8A\L	.	.	.	.	.	.	.	.	.	8.a\L	-to-	.	8.cc#\L	-to-	.
8A\	.	.	.	.	.	.	.	.	.	.	.	.	.	.	.
.	.	.	.	.	.	.	.	.	.	16b\Jk	.	.	16dd\Jk	-dit	.
8A\	.	.	.	.	.	.	.	.	.	4cc#\	-dit	.	4ee\	.	.
8A\J	.	.	.	.	.	.	.	.	.	.	.	.	.	.	.
8G#\L	.	.	.	.	.	.	.	.	.	4.dd\	qui	.	4.ff#\	qui	.
8G#\	.	.	.	.	.	.	.	.	.	.	.	.	.	.	.
8G#\	.	.	.	.	.	.	.	.	.	.	.	.	.	.	.
8G#\J	.	.	.	.	.	.	.	.	.	8dd\	cus-	.	8ff#\	cus-	.
!LO:LB:g=original	!	!	!	!	!	!	!	!	!	!	!	!	!	!	!
=19	=19	=19	=19	=19	=19	=19	=19	=19	=19	=19	=19	=19	=19	=19	=19
4A\	1r	.	.	1r	.	.	1r	.	.	4cc#\	-to-	.	4ee\	-tod-	.
4D\	.	.	.	.	.	.	.	.	.	8dd\L	-dit	.	8ff#\L	-it	.
.	.	.	.	.	.	.	.	.	.	8b\J	.	.	8dd\J	.	.
!	!	!	!	!	!	!	!	!	!	!LO:SIC:o=4a\	!	!	!	!	!
4E\	.	.	.	.	.	.	.	.	.	(4a	e-	.	(>4cc#\	e-	.
!	!	!	!	!	!	!	!	!	!	!LO:SIC:o=4g#\	!	!	!	!	!
4EE/	.	.	.	.	.	.	.	.	.	4g#)	.	.	4b\)	.	.
!	!	!	!	!	!	!	!	!	!	!LO:LB:g=original	!	!	!	!	!
=20	=20	=20	=20	=20	=20	=20	=20	=20	=20	=20	=20	=20	=20	=20	=20
!LO:TX:t=P:problem=mixed beam	!	!	!	!	!	!	!	!	!	!	!	!	!	!	!
8A\L	2r	.	.	2r	.	.	2r	.	.	4a\	-am	.	4a\	-am	.
8AA/	.	.	.	.	.	.	.	.	.	.	.	.	.	.	.
8AA/	.	.	.	.	.	.	.	.	.	4r	.	.	4r	.	.
8AA/J	.	.	.	.	.	.	.	.	.	.	.	.	.	.	.
!!LO:TX:a:t= :mod=Tutti
!	!	!	!	!	!	!	!	!	!	!	!	!	!LO:PB:g=original	!	!
!LO:TX:a:i:t=tutti:mod=	!	!	!	!	!	!	!	!	!	!	!LO:MO:mod=Va-	!	!LO:TX:a:i:t=Tutti:rj:mod=	!LO:MO:mod=Va-	!
4A\	4A\	Va-	.	4e\	Va-	.	4a\	Va-	.	4cc#\	va-	.	4cc#\	va-	.
!	!	!	!	!	!LO:MO:mod=-num	!	!	!LO:MO:mod=-num	!	!	!	!	!	!	!
8B\L	8B\	-num	.	8d\	-n(um)	.	8f#\	-n(um)	.	8dd\	-num	.	8dd\	-num	.
8E\J	8E\	est	.	8e\	est	.	8g#\	est	.	8b\	est	.	8b\	est	.
=21	=21	=21	=21	=21	=21	=21	=21	=21	=21	=21	=21	=21	=21	=21	=21
4A\	4A\	vo-	.	4e\	vo-	.	4a\	vo-	.	4cc#\	vo-	.	4cc#\	vo-	.
4E\	4E\	-bis	.	8e\L	-bis	.	4g#\	-bis	.	4b\	-bis	.	4b\	-bis	.
.	.	.	.	8d\J	.	.	.	.	.	.	.	.	.	.	.
8AA/L	8A\L	an-	.	8c#\L	an-	.	4a\	an-	.	2r	.	.	2r	.	.
8BB/	8B\J	.	.	8d\J	.	.	.	.	.	.	.	.	.	.	.
8C#/	8c#\L	-te	.	8e\L	-te	.	4a\	-te	.	.	.	.	.	.	.
8D/J	8d\J	.	.	8f#\J	.	.	.	.	.	.	.	.	.	.	.
!LO:LB:g=original	!LO:LB:g=original	!	!	!LO:LB:g=original	!	!	!LO:LB:g=original	!	!	!	!	!	!	!	!
=22	=22	=22	=22	=22	=22	=22	=22	=22	=22	=22	=22	=22	=22	=22	=22
!	!	!	!	!	!	!	!LO:MO:mod=*null:null	!	!	!	!	!	!	!	!
*	*	*	*	*	*	*	*2\right	*	*	*	*	*	*	*	*
!	!	!LO:MO:mod=lu-	!	!	!LO:MO:mod=lu-	!	!	!LO:MO:mod=lu-	!	!	!	!	!	!	!
4C#/	4c#\	Lu-	.	8e\L	Lu-	.	2a\	Lu-	.	2r	.	.	2r	.	.
.	.	.	.	8d\J	.	.	.	.	.	.	.	.	.	.	.
!	!	!LO:MO:mod=-cem	!	!	!LO:MO:mod=-cem	!	!	!	!	!	!	!	!	!	!
4AA/	4A\	-c(em)	.	8c#\L	-c(em)	.	.	.	.	.	.	.	.	.	.
.	.	.	.	8d\J	.	.	.	.	.	.	.	.	.	.	.
!	!	!LO:MO:mod=an-	!	!	!	!	!	!	!	!	!	!	!	!	!
4A\	4A\	An-	.	8c#\L	an-	.	2a\	-cem	.	8a\L	an-	.	8a\L	an-	.
.	.	.	.	8d\J	.	.	.	.	.	8b\J	.	.	8b\J	.	.
4A\	4A\	-te	.	8e\L	-te	.	.	.	.	8cc#\L	-te	.	8cc#\L	-te	.
.	.	.	.	8f#\J	.	.	.	.	.	8dd\J	.	.	8dd\J	.	.
!	!	!	!	!	!	!	!	!	!	!LO:LB:g=original	!	!	!LO:LB:g=original	!	!
!!LO:MO:ori
=23	=23	=23	=23	=23	=23	=23	=23	=23	=23	=23	=23	=23	=23	=23	=23
4A\	4A\	lu-	.	4e\	lu-	.	2.a\	Luc(em)	.	4cc#\	lu-	.	4cc#\	lu-	.
4c#\	4c#\	-c(em)	.	4e\	-c(em)	.	.	.	.	4ee\	-c(em)	.	4ee\	-c(em)	.
!LO:MO:mod=*null:null	!	!	!	!	!	!	!	!	!	!	!	!	!	!	!
*2\right	*	*	*	*	*	*	*	*	*	*	*	*	*	*	*
2B\	4.B\	Sur-	.	(>4f#\	Sur-	.	.	.	.	4.dd\	sur-	.	4.dd\	sur-	.
.	.	.	.	4d\)	-ge-	.	4g#X\	Surge-	.	.	.	.	.	.	.
.	8B\	-ge-	.	.	.	.	.	.	.	8dd\	-ge-	.	8dd\	-ge-	.
!!LO:MO:mod
!! =23	=23	=23	=23	=23	=23	=23	=23	=23	=23	=23	=23	=23	=23	=23	=23
!! 4A\	4A\	lu-	.	4e\	lu-	.	4a	lu-	.	4cc#\	lu-	.	4cc#\	lu-	.
!! 4c#\	4c#\	-cem	.	4e\	-cem	.	4a	-cem	.	4ee\	-cem	.	4ee\	-c(em)	.
!! 2B\	4.B\	sur-	.	(>4f#\	sur-	.	4a	sur-	.	4.dd\	sur-	.	4.dd\	sur-	.
!! .	.	.	.	4d\)	-ge-	.	4g#X\	-ge-	.	.	.	.	.	.	.
!! .	8B\	-ge-	.	.	.	.	.	.	.	8dd\	-ge-	.	8dd\	-ge-	.
!!LO:MO:end
=24	=24	=24	=24	=24	=24	=24	=24	=24	=24	=24	=24	=24	=24	=24	=24
!	!LO:MO:mod=*null:null	!	!	!LO:MO:mod=*null:null	!	!	!	!	!	!	!	!	!	!	!
*	*2\right	*	*	*2\right	*	*	*	*	*	*	*	*	*	*	*
2A\	2A\	-re	.	2e\	-re	.	2a\	-re	.	2cc#\	-re	.	2cc#\	-re	.
!	!	!	!	!	!	!	!	!	!	!	!	!	!LO:TX:a:i:t=Soli:mod=	!	!
!	!	!	!	!	!	!	!	!	!	!	!	!	!LO:MO:mod=!null:null	!	!
!	!	!	!	!	!	!	!	!	!	!LO:TX:a:i:t=Soli:mod=	!LO:MO:mod=sur-	!	!LO:N:vis=4	!LO:MO:mod=sur-	!
4A\	2r	.	.	2r	.	.	2r	.	.	8.cc#\	Sur-	.	8.ee\	Sur-	.
.	.	.	.	.	.	.	.	.	.	16b\	-gi-	.	16dd\	-gi-	.
4AA/	.	.	.	.	.	.	.	.	.	4a\	-te	.	4cc#\	-te	.
!	!LO:LB:g=original	!	!	!	!	!	!	!	!	!	!	!	!	!	!
=25	=25	=25	=25	=25	=25	=25	=25	=25	=25	=25	=25	=25	=25	=25	=25
!	!	!LO:MO:mod=sur-	!	!	!LO:MO:mod=sur-	!	!	!LO:MO:mod=sur-	!	!LO:TX:a:i:t=tutti:mod=	!LO:MO:mod=sur-	!	!LO:TX:a:i:t=tutti:mod=	!LO:MO:mod=sur-	!
4A\	8.A\	Sur-	.	8.e\	Sur-	.	8.a\	Sur-	.	8.a\	Sur-	.	8.cc#\	Sur-	.
.	16AA/	-gi-	.	16d\	-gi-	.	16e\	-gi-	.	16b\	-gi-	.	16b\	-gi-	.
4AA/	4AA/	-te	.	4c#\	-te	.	4e\	-te	.	4cc#\	-te	.	4a\	-te	.
!	!	!	!	!	!	!	!	!	!	!	!	!	!LO:LB:g=original	!	!
!	!	!	!	!	!	!	!	!	!	!	!LO:MO:mod=sur-	!	!LO:TX:a:i:t=Soli:mod=	!LO:MO:mod=sur-	!
8A\L	2r	.	.	2r	.	.	2r	.	.	8.a\	Sur-	.	8.cc#\	Sur-	.
8A\	.	.	.	.	.	.	.	.	.	.	.	.	.	.	.
.	.	.	.	.	.	.	.	.	.	16b\	-gi-	.	16dd\	-gi-	.
8A\	.	.	.	.	.	.	.	.	.	8cc#\	-te	.	8ee\	-te	.
8A\J	.	.	.	.	.	.	.	.	.	8dd\	post-	.	8ff#\	post-	.
!LO:PB:g=original	!	!	!	!LO:LB:g=original	!	!	!LO:LB:g=original	!	!	!LO:PB:g=original	!	!	!	!	!
=26	=26	=26	=26	=26	=26	=26	=26	=26	=26	=26	=26	=26	=26	=26	=26
!	!LO:TX:b:i:t=1:mod=	!	!	!LO:TX:b:i:t=1:mod=	!	!	!LO:TX:b:i:t=1:mod=	!	!	!	!LO:MO:mod=-quam	!	!	!LO:MO:mod=-quam	!
8A\L	1r	.	.	1r	.	.	1r	.	.	4ee\	-qu(am)	.	4ggn\	-qu(am)	.
8A\	.	.	.	.	.	.	.	.	.	.	.	.	.	.	.
8A\	.	.	.	.	.	.	.	.	.	4dd\	se-	.	4ff#\	se-	.
8A\J	.	.	.	.	.	.	.	.	.	.	.	.	.	.	.
8A\L	.	.	.	.	.	.	.	.	.	8dd\	-de-	.	8ff#\	-de-	.
8A\	.	.	.	.	.	.	.	.	.	16cc#\LL	-ri-	.	16ee\LL	-ri-	.
.	.	.	.	.	.	.	.	.	.	16b\JJ	.	.	16dd\JJ	.	.
8A\	.	.	.	.	.	.	.	.	.	4cc#\	-tis	.	4ee\	-tis	.
8A\J	.	.	.	.	.	.	.	.	.	.	.	.	.	.	.
=27	=27	=27	=27	=27	=27	=27	=27	=27	=27	=27	=27	=27	=27	=27	=27
!!LO:TX:a:i:t= :mod=sotto voce
!	!	!	!	!	!	!	!LO:TX:a:i:t=Sotto voce:rj:mod=	!	!	!	!	!	!	!LO:MO:mod=Sur-	!
4A\	8.A\	Sur-	.	8.c#\	Sur-	.	8.a\	Sur-	.	8.ee\	Sur-	.	8.ee\	sur-	.
.	16AA/	-gi-	.	16d\	-gi-	.	16b\	-gi-	.	16dd\	-gi-	.	16dd\	-gi-	.
4AA/	4AA/	-te	.	4e\	-te	.	4a\	-te	.	4cc#\	-te	.	4cc#\	-te	.
!	!	!	!LO:DY:t= :mod=%s	!	!	!	!	!	!	!	!	!	!	!	!
!	!	!	!LO:MO:mod=!LO&colon;DY&colon;ed=brack	!	!	!	!	!	!	!	!	!	!LO:LB:g=original	!	!
!	!	!	!null	!LO:TX:a:i:t=Sotto voce:mod=	!	!LO:DY:t= :mod=%s	!	!	!LO:DY:t=%s.:mod=%s	!LO:TX:a:i:t=Sottovoce:mod=	!	!LO:DY:t=%s.:mod=%s	!LO:TX:a:i:t=Sotto voce:mod=	!	!LO:DY:t=%s.:mod=%s
2A\	2A\	qui	f	2e\	qui	f	2a\	qui	f	2cc#\	qui	f	2cc#\	qui	f
!	!LO:LB:g=original	!	!	!	!	!	!	!	!	!	!	!	!	!	!
=28	=28	=28	=28	=28	=28	=28	=28	=28	=28	=28	=28	=28	=28	=28	=28
!	!	!	!	!	!	!LO:DY:t=%s.:rj:mod= 	!	!	!	!	!	!	!	!	!
2G#\	2G#\	man-	.	2e\	man-	f	2e\	man-	.	2b\	man-	.	2b\	man-	.
2Gn\	2Gn\	-du-	.	2B\	-du-	.	2e\	-du-	.	2b\	-du-	.	2b\	-du-	.
!LO:LB:g=original	!	!	!	!	!	!	!	!	!	!LO:LB:g=original	!	!	!	!	!
=29	=29	=29	=29	=29	=29	=29	=29	=29	=29	=29	=29	=29	=29	=29	=29
2F#\	2F#\	-ca-	.	2c#\	-ca-	.	2f#\	-ca-	.	2a#X\	-ca-	.	2a#X\	-ca-	.
2E#X\	2E#X\	-tis	.	2d\	-tis	.	2g#X\	-tis	.	2b\	-tis	.	2b\	-tis	.
!	!	!	!	!LO:LB:g=original	!	!	!LO:LB:g=original	!	!	!	!	!	!	!	!
=30	=30	=30	=30	=30	=30	=30	=30	=30	=30	=30	=30	=30	=30	=30	=30
4F#\	4F#\	pa-	.	4c#\	pa-	.	4f#\	pa-	.	4a#X\	pa-	.	4a#X\	pa-	.
!	!	!LO:MO:mod=-nem	!	!	!LO:MO:mod=-nem	!	!	!LO:MO:mod=-nem	!	!	!LO:MO:mod=-nem	!	!	!LO:MO:mod=-nem	!
4B\	8B\	-n(em)	.	8d\	-n(em)	.	8f#\	-n(em)	.	8b\	-n(em)	.	8b\	-n(em)	.
.	8B\	do-	.	8d\	do-	.	8f#\	do-	.	8b\	do-	.	8b\	do-	.
2F#\	2F#\	-lo-	.	2c#\	-lo-	.	2f#\	-lo-	.	(>4b\	-lo-	.	(>4b\	-lo-	.
!	!	!	!	!	!	!	!	!	!	!LO:SIC:o=4a#X\)	!	!	!LO:SIC:o=4a#X\)	!	!
.	.	.	.	.	.	.	.	.	.	4a#)	.	.	4a#)	.	.
!	!	!	!	!	!	!	!	!	!	!	!	!	!LO:LB:g=original	!	!
=31	=31	=31	=31	=31	=31	=31	=31	=31	=31	=31	=31	=31	=31	=31	=31
4BB/	4BB/	-ris	.	4B\	-ris	.	4f#\	-ris	.	4b\	-ris	.	4b\	-ris	.
!	!	!LO:MO:mod=cum	!	!	!LO:MO:mod=cum	!	!	!	!	!	!	!	!	!	!
4BB/	4B\	c(um)	.	4d\	c(um)	.	4gn\	cum	.	4b\	cum	.	4b\	cum	.
2C#/	4.c#\	de-	.	4.e\	de-	.	4.g\	de-	.	4.an\	de-	.	4.an\	de-	.
.	8c#\	-de-	.	8e\	-de-	.	8g\	-de-	.	8a\	-de-	.	8a\	-de-	.
!	!LO:LB:g=original	!	!	!	!	!	!	!	!	!LO:LB:g=original	!	!	!	!	!
=32	=32	=32	=32	=32	=32	=32	=32	=32	=32	=32	=32	=32	=32	=32	=32
4D\	4d\	-rit	.	4d\	-rit	.	4f#\	-rit	.	4a\	-rit	.	4a\	-rit	.
4d\	4d\	di-	.	4d\	di-	.	4f#\	di-	.	4r	.	.	4r	.	.
!LO:LB:g=original	!	!	!	!	!	!	!LO:LB:g=original	!	!	!	!	!	!	!	!
4B\	4B\	-le-	.	4d\	-le-	.	4gn\	-le-	.	4r	.	.	4r	.	.
4F#\	4F#\	-ctis	.	4d\	-ctis	.	4a\	-ctis	.	4dd\	di-	.	4dd\	di-	.
!	!	!	!	!LO:LB:g=original	!	!	!	!	!	!	!	!	!	!	!
=33	=33	=33	=33	=33	=33	=33	=33	=33	=33	=33	=33	=33	=33	=33	=33
2Gn\	2Gn\	su-	.	2d\	Su-	.	2gn\	Su-	.	4b\	-le-	.	4b\	-le-	.
.	.	.	.	.	.	.	.	.	.	4b\	-ctis	.	4b\	-ctis	.
2G#X\	2G#X\	-is	.	2e\	-is	.	2e\	-is	.	4b\	su-	.	4b\	su-	.
.	.	.	.	.	.	.	.	.	.	4dd\	-is	.	4dd\	-is	.
!	!	!	!	!	!	!	!	!	!	!	!	!	!LO:LB:g=original	!	!
=34	=34	=34	=34	=34	=34	=34	=34	=34	=34	=34	=34	=34	=34	=34	=34
!LO:MO:mod=[1A	!	!LO:MO:mod=som-	!	!	!LO:MO:mod=som-	!	!	!LO:MO:mod=som-	!	!	!	!	!	!	!
[>2A\	1A	So-	.	2e\	Som-	.	1a	Som-	.	2cc#\	som-	.	2cc#\	som-	.
!LO:MO:mod=.	!	!	!	!	!	!	!	!	!	!	!	!	!	!	!
2A\_>	.	.	.	2f#\	.	.	.	.	.	2dd\	.	.	2dd\	.	.
!	!	!	!	!	!	!	!	!	!	!LO:LB:g=original	!	!	!	!	!
=35	=35	=35	=35	=35	=35	=35	=35	=35	=35	=35	=35	=35	=35	=35	=35
2A\]	2A\	-num	.	2e\	-num	.	2a\	-num	.	2cc#\	-num	.	2cc#\	-num	.
!	!LO:LB:g=original	!	!	!	!	!	!	!	!	!	!	!	!	!	!
4A\	4A\	ec-	.	4e\	ec-	.	4a\	ec-	.	4cc#\	ec-	.	4cc#\	ec-	.
8A\L	8A\	-ce	.	8e\	-ce	.	8a\	-ce	.	8cc#\	-ce	.	8cc#\	-ce	.
8Gn\J	8Gn\	hae-	.	8c#\	hae-	.	8a\	hae-	.	8ee\	hae-	.	8ee\	hae-	.
!LO:LB:g=original	!	!	!	!LO:LB:g=original	!	!	!LO:LB:g=original	!	!	!	!	!	!	!	!
=36	=36	=36	=36	=36	=36	=36	=36	=36	=36	=36	=36	=36	=36	=36	=36
4F#\	4F#\	-re-	.	4d\	-re-	.	4a\	-re-	.	4dd\	-re-	.	4dd\	-re-	.
4B\	8B\	-di-	.	8d\	-di-	.	8f#\	-di-	.	8dd\	-di-	.	8dd\	-di-	.
.	8B\	-tas	.	8d\	-tas	.	8f#\	-tas	.	8dd\	-tas	.	8dd\	-tas	.
!	!	!LO:MO:mod=Do-	!	!	!LO:MO:mod=Do-	!	!	!LO:MO:mod=Do-	!	!	!LO:MO:mod=Do-	!	!	!LO:MO:mod=Do-	!
2E\	4.E\	do-	.	4.e\	do-	.	4.gn\	do-	.	(>4dd\	do-	.	(>4dd\	do-	.
.	.	.	.	.	.	.	.	.	.	8cc#\)	.	.	8cc#\)	.	.
.	8E\	-mi-	.	8e\	-mi-	.	8g\	-mi-	.	8cc#\	-mi-	.	8cc#\	-mi-	.
!	!LO:LB:g=original	!	!	!	!	!	!	!	!	!	!	!	!LO:LB:g=original	!	!
=37	=37	=37	=37	=37	=37	=37	=37	=37	=37	=37	=37	=37	=37	=37	=37
2D/	2D\	-ni	.	2A/	-ni	.	2f#\	-ni	.	2dd\	-ni	.	2dd\	-ni	.
4d\	4d\	fi-	.	2r	.	.	4f#\	fi-	.	4dd\	fi-	.	4dd\	fi-	.
4A\	8A\	-li-	.	.	.	.	8a\	-li-	.	8cc#\	-li-	.	8cc#\	-li-	.
.	8A\	-i	.	.	.	.	8a\	-i	.	8cc#\	-i	.	8cc#\	-i	.
!	!LO:LB:g=original	!	!	!	!	!	!	!	!	!LO:LB:g=original	!	!	!	!	!
=38	=38	=38	=38	=38	=38	=38	=38	=38	=38	=38	=38	=38	=38	=38	=38
4B\	4B\	mer-	.	4r	.	.	4f#\	mer-	.	4dd\	mer-	.	4dd\	mer-	.
4F#\	4F#\	-ces	.	2d\	fru-	.	4a\	-ces	.	4dd\	-ces	.	4dd\	-ces	.
4Gn\	4Gn\	fru-	.	.	.	.	4b\	fru-	.	4dd\	fru-	.	4dd\	fru-	.
4B\	4B\	-ctus	.	4d\	-ctus	.	4g#X\	-ctus	.	4dd\	-ctus	.	4dd\	-ctus	.
!	!	!	!	!LO:LB:g=original	!	!	!LO:LB:g=original	!	!	!	!	!	!	!	!
=39	=39	=39	=39	=39	=39	=39	=39	=39	=39	=39	=39	=39	=39	=39	=39
!	!	!	!	!LO:TX:b:i:t=5:mod=	!	!	!	!	!	!	!	!	!	!	!
2A\	2A\	ven-	.	00r	.	.	2a\	ven-	.	(>4dd\	ven-	.	(>4dd\	ven-	.
.	.	.	.	.	.	.	.	.	.	4cc#\)	.	.	4cc#\)	.	.
!LO:LB:g=original	!	!	!	!	!	!	!	!	!	!	!	!	!	!	!
4D\	4D\	-tris	.	.	.	.	4a\	-tris	.	4dd\	-tris	.	4dd\	-tris	.
8F#\L	4r	.	.	.	.	.	4r	.	.	4r	.	.	4rb	.	.
8A\J	.	.	.	.	.	.	.	.	.	.	.	.	.	.	.
!	!	!	!	!	!	!	!	!	!	!	!	!	!LO:LB:g=original	!	!
=40	=40	=40	=40	=40	=40	=40	=40	=40	=40	=40	=40	=40	=40	=40	=40
!	!	!	!	!	!	!	!LO:TX:b:i:t=5:mod=	!	!	!LO:TX:b:i:t=2:mod=	!	!	!LO:TX:b:i:t=2:mod=	!	!
8D\L	4D\	Si-	.	.	.	.	00r	.	.	0r	.	.	0r	.	.
8D\	.	.	.	.	.	.	.	.	.	.	.	.	.	.	.
8D\	8F#\	-cut	.	.	.	.	.	.	.	.	.	.	.	.	.
!	!	!LO:MO:mod=sa-	!	!	!	!	!	!	!	!	!	!	!	!	!
8D\J	8A\	Sa-	.	.	.	.	.	.	.	.	.	.	.	.	.
!	!LO:LB:g=original	!	!	!	!	!	!	!	!	!	!	!	!	!	!
8D\L	4d\	-git-	.	.	.	.	.	.	.	.	.	.	.	.	.
8D\	.	.	.	.	.	.	.	.	.	.	.	.	.	.	.
8D\	8D/	-tae	.	.	.	.	.	.	.	.	.	.	.	.	.
8D\J	8d\	in	.	.	.	.	.	.	.	.	.	.	.	.	.
=41	=41	=41	=41	=41	=41	=41	=41	=41	=41	=41	=41	=41	=41	=41	=41
8AA/L	8c#\L	ma-	.	.	.	.	.	.	.	.	.	.	.	.	.
8AA/	8B\J	.	.	.	.	.	.	.	.	.	.	.	.	.	.
8AA/	8A\	-nu	.	.	.	.	.	.	.	.	.	.	.	.	.
8AA/J	8Gn\	po-	.	.	.	.	.	.	.	.	.	.	.	.	.
8D\L	4F#\	-ten-	.	.	.	.	.	.	.	.	.	.	.	.	.
8D\	.	.	.	.	.	.	.	.	.	.	.	.	.	.	.
8D\	4D\	-tis	.	.	.	.	.	.	.	.	.	.	.	.	.
8D\J	.	.	.	.	.	.	.	.	.	.	.	.	.	.	.
!LO:LB:g=original	!	!	!	!	!	!	!	!	!	!LO:LB:g=original	!	!	!	!	!
!!LO:MO:ori
=42	=42	=42	=42	=42	=42	=42	=42	=42	=42	=42	=42	=42	=42	=42	=42
!!LO:TX:a:t= :mod=Solo
!LO:TX:a:i:t=Soli:mod=	!LO:TX:b:i:t=4:mod=	!	!	!	!	!	!	!	!	!	!	!	!LO:TX:a:i:t=Soli:rj:mod=	!	!
4D\	00r	.	.	.	.	.	.	.	.	4dd\	I-	.	4ff#\	I-	.
4D\	.	.	.	.	.	.	.	.	.	8ff#\L	-ta	.	8aa\L	-ta	.
.	.	.	.	.	.	.	.	.	.	8dd\J	.	.	8ff#\J	.	.
4AA/	.	.	.	.	.	.	.	.	.	8cc#\	fi-	.	8ee\	Fi-	.
.	.	.	.	.	.	.	.	.	.	16b\	-li-	.	16dd\	-li-	.
.	.	.	.	.	.	.	.	.	.	16a\	-i	.	16cc#\	-i	.
4E\	.	.	.	.	.	.	.	.	.	8b\	ex-	.	8dd\	ex-	.
.	.	.	.	.	.	.	.	.	.	8g#\	-cus-	.	8b\	-cus-	.
=43	=43	=43	=43	=43	=43	=43	=43	=43	=43	=43	=43	=43	=43	=43	=43
8A\L	.	.	.	1r	.	.	.	.	.	[>2a\	-so-	.	[>2cc#\	-so-	.
8G#\	.	.	.	.	.	.	.	.	.	.	.	.	.	.	.
8F#\	.	.	.	.	.	.	.	.	.	.	.	.	.	.	.
8E\	.	.	.	.	.	.	.	.	.	.	.	.	.	.	.
8D\	.	.	.	.	.	.	.	.	.	4.a\]	.	.	4.cc#\]	.	.
8C#\	.	.	.	.	.	.	.	.	.	.	.	.	.	.	.
8BB\	.	.	.	.	.	.	.	.	.	.	.	.	.	.	.
8AA\J	.	.	.	.	.	.	.	.	.	16b\LL	.	.	16dd\LL	.	.
.	.	.	.	.	.	.	.	.	.	16cc#\JJ	.	.	16ee\JJ	.	.
!	!	!	!	!	!	!	!	!	!	!	!	!	!LO:LB:g=original	!	!
=44	=44	=44	=44	=44	=44	=44	=44	=44	=44	=44	=44	=44	=44	=44	=44
!	!	!	!	!LO:TX:t=P:problem=brak taktów nr 44-45	!	!	!	!	!	!	!	!	!	!	!
4D\	.	.	.	1ryy	.	.	1r	.	.	8dd\L	.	.	8ff#\L	.	.
.	.	.	.	.	.	.	.	.	.	8cc#\	.	.	8ee\	.	.
4r	.	.	.	.	.	.	.	.	.	8b\	.	.	8dd\	.	.
.	.	.	.	.	.	.	.	.	.	8a\J	.	.	8cc#\J	.	.
!LO:LB:g=original	!	!	!	!	!	!	!	!	!	!LO:LB:g=original	!	!	!	!	!
4E\	.	.	.	.	.	.	.	.	.	8g#\L	.	.	8b\L	.	.
.	.	.	.	.	.	.	.	.	.	16a\L	.	.	16cc#\L	.	.
.	.	.	.	.	.	.	.	.	.	16g#\JJ	.	.	16b\JJ	.	.
8A\L	.	.	.	.	.	.	.	.	.	8a\L	.	.	8cc#\L	.	.
8D\J	.	.	.	.	.	.	.	.	.	8b\J	.	.	8dd\J	.	.
=45	=45	=45	=45	=45	=45	=45	=45	=45	=45	=45	=45	=45	=45	=45	=45
!	!LO:TX:t=P:problem=niepotrzebnie powtórzony fragment	!	!	!	!	!	!	!	!	!	!	!	!	!	!
1ryy	.	.	.	1ryy	.	.	1ryy	.	.	1ryy	.	.	1ryy	.	.
!!LO:MO:mod
!! =42	=42	=42	=42	=42	=42	=42	=42	=42	=42	=42	=42	=42	=42	=42	=42
!! !!LO:TX:a:t=Solo
!! 4D\	1r	.	.	.	.	.	.	.	.	4dd\	i-	.	4ff#\	i-	.
!! 4D\	.	.	.	.	.	.	.	.	.	8ff#\L	-ta	.	8aa\L	-ta	.
!! .	.	.	.	.	.	.	.	.	.	8dd\J	.	.	8ff#\J	.	.
!! 4AA/	.	.	.	.	.	.	.	.	.	8cc#\	fi-	.	8ee\	fi-	.
!! .	.	.	.	.	.	.	.	.	.	16b\	-li-	.	16dd\	-li-	.
!! .	.	.	.	.	.	.	.	.	.	16a\	-i	.	16cc#\	-i	.
!! 4E\	.	.	.	.	.	.	.	.	.	8b\	ex-	.	8dd\	ex-	.
!! .	.	.	.	.	.	.	.	.	.	8g#\	-cus-	.	8b\	-cus-	.
!! =43	=43	=43	=43	=43	=43	=43	=43	=43	=43	=43	=43	=43	=43	=43	=43
!! 8A\L	1r	.	.	1r	.	.	.	.	.	[>2a\	-so-	.	[>2cc#\	-so-	.
!! 8G#\	.	.	.	.	.	.	.	.	.	.	.	.	.	.	.
!! 8F#\	.	.	.	.	.	.	.	.	.	.	.	.	.	.	.
!! 8E\J	.	.	.	.	.	.	.	.	.	.	.	.	.	.	.
!! 8D\L	.	.	.	.	.	.	.	.	.	4.a\]	.	.	4.cc#\]	.	.
!! 8C#\	.	.	.	.	.	.	.	.	.	.	.	.	.	.	.
!! 8BB\	.	.	.	.	.	.	.	.	.	.	.	.	.	.	.
!! 8AA\J	.	.	.	.	.	.	.	.	.	16b\LL	.	.	16dd\LL	.	.
!! .	.	.	.	.	.	.	.	.	.	16cc#\JJ	.	.	16ee\JJ	.	.
!! !	!	!	!	!	!	!	!	!	!	!	!	!	!LO:LB:g=original	!	!
!! =44	=44	=44	=44	=44	=44	=44	=44	=44	=44	=44	=44	=44	=44	=44	=44
!! 4D\	1r	.	.	1r	.	.	1r	.	.	8dd\L	.	.	8ff#\L	.	.
!! .	.	.	.	.	.	.	.	.	.	8cc#\	.	.	8ee\	.	.
!! 4r	.	.	.	.	.	.	.	.	.	8b\	.	.	8dd\	.	.
!! .	.	.	.	.	.	.	.	.	.	8a\J	.	.	8cc#\J	.	.
!! !LO:LB:g=original	!	!	!	!	!	!	!	!	!	!LO:LB:g=original	!	!	!	!	!
!! 4E\	.	.	.	.	.	.	.	.	.	8g#\L	.	.	8b\L	.	.
!! .	.	.	.	.	.	.	.	.	.	16a\L	.	.	16cc#\L	.	.
!! .	.	.	.	.	.	.	.	.	.	16g#\JJ	.	.	16b\JJ	.	.
!! 8A\L	.	.	.	.	.	.	.	.	.	8a\L	.	.	8cc#\L	.	.
!! 8D\J	.	.	.	.	.	.	.	.	.	8b\J	.	.	8dd\J	.	.
!!LO:MO:end
=46	=46	=46	=46	=46	=46	=46	=46	=46	=46	=46	=46	=46	=46	=46	=46
4E\	2r	.	.	2r	.	.	2r	.	.	4a\	.	.	4cc#\	.	.
4EE/	.	.	.	.	.	.	.	.	.	4g#\	.	.	4b\	.	.
!	!LO:LB:g=original	!	!	!	!	!	!	!	!	!	!	!	!	!LO:MO:mod=-rum	!
4AA/	4r	.	.	4r	.	.	4r	.	.	4a\	-rum	.	4a\	-r(um)	.
!!LO:TX:a:t= :mod=Tutti
!LO:TX:a:i:t=tutti:mod=	!	!LO:MO:mod=Be-	!	!LO:TX:a:i:t=tutti:mod=	!LO:MO:mod=Be-	!	!LO:TX:a:i:t=Tutti:rj:mod=	!LO:MO:mod=Be-	!	!	!LO:MO:mod=Be-	!	!LO:TX:a:i:t=tutti:mod=	!	!
4A\	4A\	be-	.	4e\	be-	.	4a\	be-	.	4cc#\	be-	.	4cc#\	Be-	.
=47	=47	=47	=47	=47	=47	=47	=47	=47	=47	=47	=47	=47	=47	=47	=47
4E#X\	4E#X\	-a-	.	4c#\	-a-	.	4g#\	-a-	.	4cc#\	-a-	.	4cc#\	-a-	.
4F#\	4F#\	-tus	.	4c#\	-tus	.	4f#\	-tus	.	4a\	-tus	.	4a\	-tus	.
!	!	!	!	!	!	!	!	!	!	!	!	!	!LO:PB:g=original	!	!
4C#/	4C#/	vir	.	4c#\	vir	.	4e#X\	vir	.	4g#\	vir	.	4g#\	vir	.
8c#\L	8c#\	qui	.	8c#\	qui	.	8e#\	qui	.	8g#\	qui	.	8g#\	qui	.
8B\J	8B\	im-	.	8c#\	im-	.	8e#\	im-	.	8g#\	im-	.	8g#\	im-	.
!LO:LB:g=original	!	!	!	!	!	!	!LO:LB:g=original	!	!	!LO:LB:g=original	!	!	!	!	!
=48	=48	=48	=48	=48	=48	=48	=48	=48	=48	=48	=48	=48	=48	=48	=48
4A\	4A\	-ple-	.	4c#\	-ple-	.	4f#\	-ple-	.	4cc#\	-ple-	.	4cc#\	-ple-	.
4F#\	4F#\	-vit	.	4f#\	-vit	.	4a\	-vit	.	4cc#\	-vit	.	4cc#\	-vit	.
!	!	!	!	!LO:LB:g=original	!	!	!	!	!	!	!	!	!	!	!
4G#\	4G#\	de-	.	4f#\	de-	.	4g#\	de-	.	4b\	de-	.	4b\	de-	.
4C#/	4C#/	-si-	.	4e#X\	-si-	.	4g#\	-si-	.	4b\	-si-	.	4b\	-si-	.
!	!LO:PB:g=original	!	!	!	!	!	!	!	!	!	!	!	!	!	!
=49	=49	=49	=49	=49	=49	=49	=49	=49	=49	=49	=49	=49	=49	=49	=49
8F#\L	8F#\L	-de-	.	4f#\	-de-	.	4f#\	-de-	.	4a\	-de-	.	4a\	-de-	.
8G#\	8G#\J	.	.	.	.	.	.	.	.	.	.	.	.	.	.
8A\	8A\	-ri-	.	8f#\	-ri-	.	8f#\	-ri-	.	8a\	-ri-	.	8a\	-ri-	.
8B\J	8B\	-um	.	8f#\	-um	.	8f#\	-um	.	8a\	-um	.	8a\	-um	.
4c#\	4c#\	Su-	.	4c#\	su-	.	4e#X\	su-	.	4g#\	su-	.	4g#\	su-	.
!	!	!	!	!	!	!	!	!LO:MO:mod=-um	!	!	!LO:MO:mod=-um	!	!	!LO:MO:mod=-um	!
4C#/	8C#/	-um	.	8c#\	-um	.	8e#\	-(um)	.	8cc#\	-(um)	.	8cc#\	-(um)	.
.	8C#/	ex	.	8c#\	ex	.	8e#\	ex	.	8cc#\	ex	.	8cc#\	ex	.
!	!	!	!	!	!	!	!	!	!	!	!	!	!LO:LB:g=original	!	!
=50	=50	=50	=50	=50	=50	=50	=50	=50	=50	=50	=50	=50	=50	=50	=50
2D\	2D\	i-	.	2F#/	i-	.	2f#\	i-	.	4cc#\	i-	.	4cc#\	i-	.
.	.	.	.	.	.	.	.	.	.	4b\	.	.	4b\	.	.
!LO:LB:g=original	!	!	!	!	!	!	!	!	!	!	!	!	!	!	!
2C#/	2C#/	-psis	.	2G#/	-psis	.	2e#X\	-psis	.	2cc#\	-psis	.	2cc#\	-psis	.
!	!	!	!	!LO:LB:g=original	!	!	!LO:LB:g=original	!	!	!LO:LB:g=original	!	!	!	!	!
=51	=51	=51	=51	=51	=51	=51	=51	=51	=51	=51	=51	=51-	=51	=51	=51
!	!	!	!	!	!	!	!	!	!	!LO:TX:a:i:t=Soli:mod=	!	!	!	!	!
4E#X\	2r	.	.	2r	.	.	2r	.	.	4cc#\	non	.	2r	.	.
4r	.	.	.	.	.	.	.	.	.	8b\	con-	.	.	.	.
.	.	.	.	.	.	.	.	.	.	8cc#\	-fun-	.	.	.	.
!	!	!	!	!	!	!	!	!	!	!	!	!	!LO:TX:a:i:t=Soli:rj:mod=	!	!
4F#\	4F#\	non	.	4c#\	non	.	4f#\	non	.	4a\	-de-	.	4ff#\	non	.
4r	4r	.	.	4r	.	.	4r	.	.	4a\	-tur	.	8ee\	con-	.
.	.	.	.	.	.	.	.	.	.	.	.	.	8ff#\	-fun-	.
!	!LO:LB:g=original	!	!	!	!	!	!	!	!	!	!	!	!	!	!
=52	=52	=52	=52	=52	=52	=52	=52	=52	=52	=52	=52	=52	=52	=52	=52
4B\	4B\	non	.	4d\	non	.	4f#\	non	.	4b\	non	.	4dd\	-de-	.
4r	4r	.	.	4r	.	.	4r	.	.	8a\	con-	.	4dd\	-tur	.
.	.	.	.	.	.	.	.	.	.	8b\	-fun-	.	.	.	.
4E\	4E\	non	.	4B\	non	.	4e\	non	.	4g#\	-de-	.	4ee\	non	.
4r	4r	.	.	4r	.	.	4r	.	.	4g#\	-tur	.	8dd\	con-	.
.	.	.	.	.	.	.	.	.	.	.	.	.	8ee\	-fun-	.
!LO:PB:g=original	!	!	!	!	!	!	!	!	!	!	!	!	!LO:LB:g=original	!	!
=53	=53	=53	=53	=53	=53	=53	=53	=53	=53	=53	=53	=53	=53	=53	=53
4AA/	4A\	non	.	4e\	non	.	4a\	non	.	2r	.	.	4cc#\	-de-	.
8A\L	8A\	con-	.	8e\	con-	.	8a\	con-	.	.	.	.	4cc#\	-tur	.
8G#\J	8G#\	-fun-	.	8e\	-fun-	.	8a\	-fun-	.	.	.	.	.	.	.
!	!	!	!	!	!	!	!	!	!	!	!LO:MO:mod=cum	!	!LO:TX:a:i:t=tutti:mod=	!LO:MO:mod=cum	!
4F#\	4F#\	-de-	.	4f#\	-de-	.	4a\	-de-	.	4dd\	c(um)	.	4dd\	c(um)	.
4C#/	4C#/	-tur	.	4e\	-tur	.	4a\	-tur	.	4ee\	lo-	.	4ee\	lo-	.
!	!	!	!	!LO:PB:g=original	!	!	!LO:PB:g=original	!	!	!LO:PB:g=original	!	!	!	!	!
=54	=54	=54	=54	=54	=54	=54	=54	=54	=54	=54	=54	=54	=54	=54	=54
!	!	!LO:MO:mod=cum	!	!	!LO:MO:mod=cum	!	!	!LO:MO:mod=cum	!	!	!	!	!	!	!
8D\L	8D\L	c(um)	.	4f#\	c(um)	.	4a\	c(um)	.	2dd\	-que-	.	2dd\	-que-	.
8E\	8E\J	.	.	.	.	.	.	.	.	.	.	.	.	.	.
8F#\	8F#\L	lo-	.	4f#\	lo-	.	4a\	lo-	.	.	.	.	.	.	.
8G#\J	8G#\J	.	.	.	.	.	.	.	.	.	.	.	.	.	.
4A\	4A\	-que-	.	4e\	-que-	.	4a\	-que-	.	2cc#\	-tur	.	2cc#\	-tur	.
4AA/	4A\	-tur	.	4e\	-tur	.	4a\	-tur	.	.	.	.	.	.	.
!LO:LB:g=original	!LO:LB:g=original	!	!	!	!	!	!	!	!	!	!	!	!	!	!
=55	=55	=55	=55	=55	=55	=55	=55	=55	=55	=55	=55	=55	=55	=55	=55
8d\L	8d\L	i-	.	4f#\	i-	.	4a\	i-	.	4dd\	i-	.	4dd\	i-	.
8c#\	8c#\J	.	.	.	.	.	.	.	.	.	.	.	.	.	.
8B\	8B\L	-ni-	.	4f#\	-ni-	.	4b\	-ni-	.	4dd\	-ni-	.	4dd\	-ni-	.
8A\J	8A\J	.	.	.	.	.	.	.	.	.	.	.	.	.	.
4G#\	4G#\	-mi-	.	4e\	-mi-	.	4b\	-mi-	.	4dd\	-mi-	.	4dd\	-mi-	.
!	!	!	!	!	!	!	!	!	!	!LO:SIC:o=4dd\	!	!	!	!	!
4A\	4A\	-cis	.	4e\	-cis	.	4a\	-cis	.	4cc#	-cis	.	4cc#\	-cis	.
!	!	!	!	!	!	!	!	!	!	!	!	!	!LO:LB:g=original	!	!
=56	=56	=56	=56	=56	=56	=56	=56	=56	=56	=56	=56	=56	=56	=56	=56
4E\	4E\	su-	.	4e\	su-	.	4g#\	su-	.	4b\	su-	.	4b\	su-	.
4A\	8A\	-is	.	8e\	-is	.	8a\	-is	.	8cc#\	-is	.	8cc#\	-is	.
.	8A\	in	.	8e\	in	.	8a\	in	.	8cc#\	in	.	8cc#\	in	.
!	!	!	!	!	!	!	!LO:LB:g=original	!	!	!	!	!	!	!	!
4E\	4E\	por-	.	[>2e\	por-	.	4g#\	por-	.	4b\	por-	.	4b\	por-	.
4A\	4A\	.	.	.	.	.	[>4a\	.	.	4cc#\	.	.	4cc#\	.	.
!LO:LB:g=original	!	!	!	!LO:LB:g=original	!	!	!	!	!	!LO:LB:g=original	!	!	!	!	!
=57	=57	=57	=57	=57	=57	=57	=57	=57	=57	=57	=57	=57	=57	=57	=57
2E\	2E\	.	.	2e\]	.	.	4a\]	.	.	2b\	.	.	2b\	.	.
.	.	.	.	.	.	.	4g#\	.	.	.	.	.	.	.	.
2AA;>/	2AA;>/	-ta	.	2e;>\	-ta	.	2a;>\	-ta	.	2a;>\	-ta	.	2a;>\	-ta	.
!LO:LB:g=original	!LO:LB:g=original	!	!	!	!	!	!	!	!	!	!	!	!LO:LB:g=original	!	!
=58||	=58||	=58||	=58||	=58||	=58||	=58||	=58||	=58||	=58||	=58||	=58||	=58||	=58	=58	=58
!!!OMD:
!!!OMD-mod: Largo
*k[f#c#]	*k[f#c#]	*	*	*k[f#c#]	*	*	*k[f#c#]	*	*	*k[f#c#]	*	*	*k[f#c#]	*	*
*M2/4	*	*	*	*	*	*	*	*	*	*	*	*	*M2/4	*	*
!LO:TX:a:i:t=Solo:rj:mod=	!	!	!	!	!	!	!	!	!	!	!	!	!LO:TX:a:i:t=p(ri)mo G.a Solo:rj:mod=	!	!
!LO:TX:b:i:t=Largo\nGloria:rj:mod=	!LO:TX:a:i:t=Gloria Patri Tacet:mod=	!	!	!LO:TX:a:i:t=Gloria Tacet:mod=	!	!	!LO:TX:a:i:t=Gloria Tacet//Contino:mod=	!	!	!LO:TX:a:i:t=Gloria Patri Tacet//Contino:mod=	!	!	!LO:TX:a:i:t=Largo:mod=	!	!
8D/L	2ryy	.	.	2ryy	.	.	2ryy	.	.	2ryy	.	.	8dd\	Glo-	.
8D/J	.	.	.	.	.	.	.	.	.	.	.	.	16.ff#\	-ri-	.
.	.	.	.	.	.	.	.	.	.	.	.	.	32gg\	-a	.
8C#/L	.	.	.	.	.	.	.	.	.	.	.	.	32aa\KLL	Pa-	.
.	.	.	.	.	.	.	.	.	.	.	.	.	16.gg\JJ	.	.
8C#/J	.	.	.	.	.	.	.	.	.	.	.	.	32ff#\	-tri	.
.	.	.	.	.	.	.	.	.	.	.	.	.	16.ee\	et	.
=59	=59	=59	=59	=59	=59	=59	=59	=59	=59	=59	=59	=59	=59	=59	=59
!	!	!	!	!	!	!	!	!	!	!	!	!	!	!LO:MO:mod=Fi-	!
8BB/L	2ryy	.	.	2ryy	.	.	2ryy	.	.	2ryy	.	.	16.dd\	fi-	.
.	.	.	.	.	.	.	.	.	.	.	.	.	32cc#\	-li-	.
8BB/J	.	.	.	.	.	.	.	.	.	.	.	.	8dd\	-o	.
!	!	!	!	!	!	!	!	!	!	!	!	!	!LO:LB:g=original	!	!
8F#\L	.	.	.	.	.	.	.	.	.	.	.	.	8r	.	.
8F#\J	.	.	.	.	.	.	.	.	.	.	.	.	16.dd\	et	.
.	.	.	.	.	.	.	.	.	.	.	.	.	32ff#\	Spi-	.
!LO:LB:g=original	!	!	!	!	!	!	!	!	!	!	!	!	!	!	!
=60	=60	=60	=60	=60	=60	=60	=60	=60	=60	=60	=60	=60	=60	=60	=60
8G\L	2ryy	.	.	2ryy	.	.	2ryy	.	.	2ryy	.	.	8ee\	-ri-	.
8G\J	.	.	.	.	.	.	.	.	.	.	.	.	16ee\	-tu-	.
.	.	.	.	.	.	.	.	.	.	.	.	.	16ff#\	-i	.
8A\L	.	.	.	.	.	.	.	.	.	.	.	.	8.ee\L	San-	.
8A\J	.	.	.	.	.	.	.	.	.	.	.	.	.	.	.
.	.	.	.	.	.	.	.	.	.	.	.	.	16gg\Jk	.	.
=61	=61	=61	=61	=61	=61	=61	=61	=61	=61	=61	=61	=61	=61	=61	=61
8D\L	2ryy	.	.	2ryy	.	.	2ryy	.	.	2ryy	.	.	4ff#\	-cto	.
8D\J	.	.	.	.	.	.	.	.	.	.	.	.	.	.	.
8F#\L	.	.	.	.	.	.	.	.	.	.	.	.	8aa\	et	.
8F#\J	.	.	.	.	.	.	.	.	.	.	.	.	16gg\LL	Spi-	.
.	.	.	.	.	.	.	.	.	.	.	.	.	16ff#\JJ	.	.
!	!	!	!	!	!	!	!	!	!	!	!	!	!LO:LB:g=original	!	!
=62	=62	=62	=62	=62	=62	=62	=62	=62	=62	=62	=62	=62	=62	=62	=62
8G\L	2ryy	.	.	2ryy	.	.	2ryy	.	.	2ryy	.	.	4dd\	-ri-	.
8G\J	.	.	.	.	.	.	.	.	.	.	.	.	.	.	.
8G#X\L	.	.	.	.	.	.	.	.	.	.	.	.	8ee\	-tu-	.
8G#\J	.	.	.	.	.	.	.	.	.	.	.	.	8dd\	-i	.
!LO:LB:g=original	!	!	!	!	!	!	!	!	!	!	!	!	!	!	!
=63	=63	=63	=63	=63	=63	=63	=63	=63	=63	=63	=63	=63	=63	=63	=63
8A\L	2ryy	.	.	2ryy	.	.	2ryy	.	.	2ryy	.	.	32cc#\LLL	San-	.
.	.	.	.	.	.	.	.	.	.	.	.	.	32b\	.	.
.	.	.	.	.	.	.	.	.	.	.	.	.	32cc#\	.	.
.	.	.	.	.	.	.	.	.	.	.	.	.	32dd\JJJ	.	.
8A\J	.	.	.	.	.	.	.	.	.	.	.	.	32ee\LLL	.	.
.	.	.	.	.	.	.	.	.	.	.	.	.	32dd\	.	.
.	.	.	.	.	.	.	.	.	.	.	.	.	32ee\	.	.
.	.	.	.	.	.	.	.	.	.	.	.	.	32ff#\JJJ	.	.
8A\L	.	.	.	.	.	.	.	.	.	.	.	.	16gg\LL	.	.
.	.	.	.	.	.	.	.	.	.	.	.	.	16ee\	.	.
8A\J	.	.	.	.	.	.	.	.	.	.	.	.	16dd\	.	.
.	.	.	.	.	.	.	.	.	.	.	.	.	16cc#\JJ	.	.
=64	=64	=64	=64	=64	=64	=64	=64	=64	=64	=64	=64	=64	=64	=64	=64
8A\L	2ryy	.	.	2ryy	.	.	2ryy	.	.	2ryy	.	.	32dd\LLL	.	.
.	.	.	.	.	.	.	.	.	.	.	.	.	32cc#\	.	.
.	.	.	.	.	.	.	.	.	.	.	.	.	32dd\	.	.
.	.	.	.	.	.	.	.	.	.	.	.	.	32ee\JJJ	.	.
8A\J	.	.	.	.	.	.	.	.	.	.	.	.	32ff#\LLL	.	.
.	.	.	.	.	.	.	.	.	.	.	.	.	32ee\	.	.
.	.	.	.	.	.	.	.	.	.	.	.	.	32ff#\	.	.
.	.	.	.	.	.	.	.	.	.	.	.	.	32gg\JJJ	.	.
!	!	!	!	!	!	!	!	!	!	!	!	!	!LO:LB:g=original	!	!
8A\L	.	.	.	.	.	.	.	.	.	.	.	.	16aa\LL	.	.
.	.	.	.	.	.	.	.	.	.	.	.	.	16ff#\	.	.
8A\J	.	.	.	.	.	.	.	.	.	.	.	.	16ee\	.	.
.	.	.	.	.	.	.	.	.	.	.	.	.	16dd\JJ	.	.
=65	=65	=65	=65	=65	=65	=65	=65	=65	=65	=65	=65	=65	=65	=65	=65
8A\L	2ryy	.	.	2ryy	.	.	2ryy	.	.	2ryy	.	.	32ee\LLL	.	.
.	.	.	.	.	.	.	.	.	.	.	.	.	32dd\	.	.
.	.	.	.	.	.	.	.	.	.	.	.	.	32ee\	.	.
.	.	.	.	.	.	.	.	.	.	.	.	.	32ff#\JJJ	.	.
8A\J	.	.	.	.	.	.	.	.	.	.	.	.	32gg\LLL	.	.
.	.	.	.	.	.	.	.	.	.	.	.	.	32ff#\	.	.
.	.	.	.	.	.	.	.	.	.	.	.	.	32gg\	.	.
.	.	.	.	.	.	.	.	.	.	.	.	.	32aa\JJJ	.	.
8A\L	.	.	.	.	.	.	.	.	.	.	.	.	16bb\LL	.	.
.	.	.	.	.	.	.	.	.	.	.	.	.	16gg\	.	.
8A\J	.	.	.	.	.	.	.	.	.	.	.	.	16ff#\	.	.
.	.	.	.	.	.	.	.	.	.	.	.	.	16ee\JJ	.	.
!LO:LB:g=original	!	!	!	!	!	!	!	!	!	!	!	!	!	!	!
=66	=66	=66	=66	=66	=66	=66	=66	=66	=66	=66	=66	=66	=66	=66	=66
8D\L	2ryy	.	.	2ryy	.	.	2ryy	.	.	2ryy	.	.	8.ff#\L	.	.
8D\J	.	.	.	.	.	.	.	.	.	.	.	.	.	.	.
.	.	.	.	.	.	.	.	.	.	.	.	.	32aa\LL	.	.
.	.	.	.	.	.	.	.	.	.	.	.	.	32dd\JJJ	.	.
8E\L	.	.	.	.	.	.	.	.	.	.	.	.	8.cc#\L	.	.
8E\J	.	.	.	.	.	.	.	.	.	.	.	.	.	.	.
.	.	.	.	.	.	.	.	.	.	.	.	.	32gg\LL	.	.
.	.	.	.	.	.	.	.	.	.	.	.	.	32cc#\JJJ	.	.
!	!	!	!	!	!	!	!	!	!	!	!	!	!LO:LB:g=original	!	!
=67	=67	=67	=67	=67	=67	=67	=67	=67	=67	=67	=67	=67	=67	=67	=67
8F#\L	2ryy	.	.	2ryy	.	.	2ryy	.	.	2ryy	.	.	[>2dd\	.	.
8E\	.	.	.	.	.	.	.	.	.	.	.	.	.	.	.
8F#\	.	.	.	.	.	.	.	.	.	.	.	.	.	.	.
8G#X\J	.	.	.	.	.	.	.	.	.	.	.	.	.	.	.
=68	=68	=68	=68	=68	=68	=68	=68	=68	=68	=68	=68	=68	=68	=68	=68
2A;>\	2ryy	.	.	2ryy	.	.	2ryy	.	.	2ryy	.	.	4dd\]	.	.
.	.	.	.	.	.	.	.	.	.	.	.	.	4eeM>\	.	.
=69	=69	=69	=69	=69	=69	=69	=69	=69	=69	=69	=69	=69	=69	=69	=69
4D\	2ryy	.	.	2ryy	.	.	2ryy	.	.	2ryy	.	.	4dd\	-cto	.
!	!	!	!	!	!	!	!	!	!	!	!	!	!LO:TX:b:i:t=volti:mod=	!	!
4r;>	.	.	.	.	.	.	.	.	.	.	.	.	4r;>	.	.
!LO:LB:g=original	!LO:LB:g=original	!	!	!LO:LB:g=original	!	!	!LO:LB:g=original	!	!	!LO:LB:g=original	!	!	!LO:PB:g=original	!	!
=||	=||	=||	=||	=||	=||	=||	=||	=||	=||	=||	=||	=||	=||	=||	=||
!!!OMD:
!!!OMD: Allegro moderato
*k[f#c#g#]	*k[f#c#g#]	*	*	*k[f#c#g#]	*	*	*k[f#c#g#]	*	*	*k[c#g#f#]	*	*	*k[c#g#f#]	*	*
*	*	*	*	*	*	*	*	*	*	*mk[f#c#g#]	*	*	*mk[f#c#g#]	*	*
*M3/8	*M3/8	*	*	*M3/8	*	*	*M3/8	*	*	*M3/8	*	*	*M3/8	*	*
!LO:TX:a:i:t=Soli:rj:mod=	!	!	!	!	!	!	!	!	!	!	!	!	!	!	!
!LO:TX:a:i:t=Allo Moderato:mod=	!	!	!	!	!	!	!	!	!	!	!	!	!	!	!
!LO:TX:t=P:problem=mixed beam	!LO:TX:b:i:t=16:mod=	!	!	!LO:TX:b:i:t=16:mod=	!	!	!LO:TX:b:i:t=16:mod=	!	!	!LO:TX:a:i:t=Soli:mod=	!	!	!LO:TX:b:i:t=4:mod=	!	!
8AA/L	1.r	.	.	1.r	.	.	1.r	.	.	4.a\	Si-	.	1.r	.	.
8A\	.	.	.	.	.	.	.	.	.	.	.	.	.	.	.
8G#\J	.	.	.	.	.	.	.	.	.	.	.	.	.	.	.
=70	=70	=70	=70	=70	=70	=70	=70	=70	=70	=70	=70	=70	=70	=70	=70
8F#\L	.	.	.	.	.	.	.	.	.	4.a\	-cut	.	.	.	.
8E\	.	.	.	.	.	.	.	.	.	.	.	.	.	.	.
8D\J	.	.	.	.	.	.	.	.	.	.	.	.	.	.	.
!LO:LB:g=original	!	!	!	!	!	!	!	!	!	!	!	!	!	!	!
=71	=71	=71	=71	=71	=71	=71	=71	=71	=71	=71	=71	=71	=71	=71	=71
8C#/L	.	.	.	.	.	.	.	.	.	8b\L	e-	.	.	.	.
8BB/	.	.	.	.	.	.	.	.	.	8cc#\J	.	.	.	.	.
8AA/J	.	.	.	.	.	.	.	.	.	8dd\	-rat	.	.	.	.
=72	=72	=72	=72	=72	=72	=72	=72	=72	=72	=72	=72	=72	=72	=72	=72
!LO:TX:t=P:problem=mixed beam	!	!	!	!	!	!	!	!	!	!	!	!	!	!	!
8D\L	.	.	.	.	.	.	.	.	.	8dd\L	in	.	.	.	.
8E\	.	.	.	.	.	.	.	.	.	8cc#\J	.	.	.	.	.
8EE/J	.	.	.	.	.	.	.	.	.	8b\	prin-	.	.	.	.
!	!	!	!	!	!	!	!	!	!	!LO:LB:g=original	!	!	!	!	!
=73	=73	=73	=73	=73	=73	=73	=73	=73	=73	=73	=73	=73	=73	=73	=73
!LO:TX:t=P:problem=mixed beam	!	!	!	!	!	!	!	!	!	!	!	!	!	!	!
8AA/L	1.r	.	.	1.r	.	.	1.r	.	.	16cc#\	-ci-	.	4.a\	Si-	.
.	.	.	.	.	.	.	.	.	.	16b\	-pi-	.	.	.	.
8A\	.	.	.	.	.	.	.	.	.	8a\	-o	.	.	.	.
8G#\J	.	.	.	.	.	.	.	.	.	8r	.	.	.	.	.
=74	=74	=74	=74	=74	=74	=74	=74	=74	=74	=74	=74	=74	=74	=74	=74
!	!	!	!	!	!	!	!	!	!	!LO:TX:b:t=3:mod=	!	!	!	!	!
8F#\L	.	.	.	.	.	.	.	.	.	2.r	.	.	4.a\	-cut	.
8E\	.	.	.	.	.	.	.	.	.	.	.	.	.	.	.
8D\J	.	.	.	.	.	.	.	.	.	.	.	.	.	.	.
!LO:PB:g=original	!	!	!	!	!	!	!	!	!	!	!	!	!	!	!
=75	=75	=75	=75	=75	=75	=75	=75	=75	=75	=75	=75	=75	=75	=75	=75
8C#/L	.	.	.	.	.	.	.	.	.	.	.	.	8a\L	e-	.
8BB/	.	.	.	.	.	.	.	.	.	.	.	.	8b\J	.	.
8AA/J	.	.	.	.	.	.	.	.	.	.	.	.	8cc#\	-rat	.
=76	=76	=76	=76	=76	=76	=76	=76	=76	=76	=76	=76	=76	=76	=76	=76
!LO:TX:t=P:problem=mixed beam	!	!	!	!	!	!	!	!	!	!	!	!	!	!	!
8D\L	.	.	.	.	.	.	.	.	.	4.r	.	.	8dd\L	in	.
8E\	.	.	.	.	.	.	.	.	.	.	.	.	8cc#\J	.	.
8EE/J	.	.	.	.	.	.	.	.	.	.	.	.	8b\	prin-	.
!	!	!	!	!	!	!	!	!	!	!	!	!	!LO:LB:g=original	!	!
=77	=77	=77	=77	=77	=77	=77	=77	=77	=77	=77	=77	=77	=77	=77	=77
8AA/L	1.r	.	.	1.r	.	.	1.r	.	.	8aa\	et	.	16cc#\	-ci-	.
.	.	.	.	.	.	.	.	.	.	.	.	.	16b\	-pi-	.
8AA/	.	.	.	.	.	.	.	.	.	8ee\	nunc	.	8a\	-o	.
8AA/J	.	.	.	.	.	.	.	.	.	8ff#\	et	.	8r	.	.
=78	=78	=78	=78	=78	=78	=78	=78	=78	=78	=78	=78	=78	=78	=78	=78
!	!	!	!	!	!	!	!	!	!	!	!LO:MO:mod=sem-	!	!	!	!
8AA/L	.	.	.	.	.	.	.	.	.	8ee\L	Sem-	.	8aa\	et	.
8AA/	.	.	.	.	.	.	.	.	.	8cc#\	.	.	8ee\	nunc	.
8AA/J	.	.	.	.	.	.	.	.	.	8dd\J	.	.	8ff#\	et	.
!	!	!	!	!	!	!	!	!	!	!LO:LB:g=original	!	!	!	!	!
=79	=79	=79	=79	=79	=79	=79	=79	=79	=79	=79	=79	=79	=79	=79	=79
!	!	!	!	!	!	!	!	!	!	!	!	!	!	!LO:MO:mod=sem-	!
8AA/L	.	.	.	.	.	.	.	.	.	8cc#\L	.	.	8ee\L	Sem-	.
8AA/	.	.	.	.	.	.	.	.	.	8a\	.	.	8cc#\	.	.
8AA/J	.	.	.	.	.	.	.	.	.	8ff#\J	.	.	8dd\J	.	.
!LO:LB:g=original	!	!	!	!	!	!	!	!	!	!	!	!	!	!	!
=80	=80	=80	=80	=80	=80	=80	=80	=80	=80	=80	=80	=80	=80	=80	=80
8AA/L	.	.	.	.	.	.	.	.	.	8ee\L	.	.	8cc#\L	.	.
8AA/	.	.	.	.	.	.	.	.	.	8cc#\	.	.	8a\	.	.
8AA/J	.	.	.	.	.	.	.	.	.	8dd\J	.	.	8ff#\J	.	.
!	!	!	!	!	!	!	!	!	!	!	!	!	!LO:LB:g=original	!	!
=81	=81	=81	=81	=81	=81	=81	=81	=81	=81	=81	=81	=81	=81	=81	=81
8AA/	1.r	.	.	1.r	.	.	1.r	.	.	8cc#\L	.	.	8ee\L	.	.
8r	.	.	.	.	.	.	.	.	.	8b\	.	.	8dd\	.	.
8r	.	.	.	.	.	.	.	.	.	8a\J	.	.	8cc#\J	.	.
=82	=82	=82	=82	=82	=82	=82	=82	=82	=82	=82	=82	=82	=82	=82	=82
8E\	.	.	.	.	.	.	.	.	.	8g#\L	.	.	8b\L	.	.
8r	.	.	.	.	.	.	.	.	.	8a\	.	.	8cc#\	.	.
8r	.	.	.	.	.	.	.	.	.	8b\J	.	.	8dd\J	.	.
!	!	!	!	!	!	!	!	!	!	!LO:LB:g=original	!	!	!	!	!
=83	=83	=83	=83	=83	=83	=83	=83	=83	=83	=83	=83	=83	=83	=83	=83
8A\L	.	.	.	.	.	.	.	.	.	4.a\	.	.	4.cc#\	.	.
8A\	.	.	.	.	.	.	.	.	.	.	.	.	.	.	.
8A\J	.	.	.	.	.	.	.	.	.	.	.	.	.	.	.
=84	=84	=84	=84	=84	=84	=84	=84	=84	=84	=84	=84	=84	=84	=84	=84
8E\L	.	.	.	.	.	.	.	.	.	4.g#\	-per	.	4.b\	-per	.
8E\	.	.	.	.	.	.	.	.	.	.	.	.	.	.	.
8E\J	.	.	.	.	.	.	.	.	.	.	.	.	.	.	.
!LO:LB:g=original	!	!	!	!	!	!	!	!	!	!	!	!	!	!	!
=85	=85	=85	=85	=85	=85	=85	=85	=85	=85	=85	=85	=85	=85	=85	=85
!!LO:TX:a:t= :mod=Tutti
!LO:TX:a:i:t=Tutti:rj:mod=	!	!	!	!	!	!	!	!	!	!LO:TX:a:i:t=Tutti:mod=	!	!	!LO:TX:a:i:t=tutti:mod=	!LO:MO:mod=Si-	!
[>4.E\	4.E\	Si-	.	4.e\	Si-	.	4.g#\	Si-	.	4.b\	Si-	.	4.b\	si-	.
=86	=86	=86	=86	=86	=86	=86	=86	=86	=86	=86	=86	=86	=86	=86	=86
4.E\]	4.E\	-cut	.	4.e\	-cut	.	4.a\	-cut	.	4.cc#\	-cut	.	4.cc#\	-cut	.
!	!	!	!	!	!	!	!	!	!	!	!	!	!LO:LB:g=original	!	!
=87	=87	=87	=87	=87	=87	=87	=87	=87	=87	=87	=87	=87	=87	=87	=87
8E\L	8E\L	e-	.	4e\	e-	.	8g#\L	e-	.	4b\	e-	.	4b\	e-	.
8F#\	8F#\J	.	.	.	.	.	8f#\J	.	.	.	.	.	.	.	.
8G#\J	8G#\	-rat	.	8e\	-rat	.	8e\	-rat	.	8b\	-rat	.	8b\	-rat	.
=88	=88	=88	=88	=88	=88	=88	=88	=88	=88	=88	=88	=88	=88	=88	=88
4A\	4A\	in	.	4e\	in	.	4a\	in	.	4cc#\	in	.	4cc#\	in	.
8A\	8A\	prin-	.	8e\	prin-	.	8a\	prin-	.	8cc#\	prin-	.	8cc#\	prin-	.
!	!	!	!	!LO:LB:g=original	!	!	!LO:LB:g=original	!	!	!LO:LB:g=original	!	!	!	!	!
=89	=89	=89	=89	=89	=89	=89	=89	=89	=89	=89	=89	=89	=89	=89	=89
8G#\L	8G#\L	-ci-	.	4e\	-ci-	.	8e\L	-ci-	.	4b\	-ci-	.	4b\	-ci-	.
8F#\	8F#\J	.	.	.	.	.	8f#\J	.	.	.	.	.	.	.	.
8E\J	8E\	-pi-	.	8e\	-pi-	.	8g#\	-pi-	.	8b\	-pi-	.	8b\	-pi-	.
!LO:LB:g=original	!LO:LB:g=original	!	!	!	!	!	!	!	!	!	!	!	!	!	!
=90	=90	=90	=90	=90	=90	=90	=90	=90	=90	=90	=90	=90	=90	=90	=90
4A\	4A\	-o	.	4e\	-o	.	4a\	-o	.	4cc#\	-o	.	4cc#\	-o	.
8A\	8A\	et	.	8e\	et	.	8a\	et	.	8cc#\	et	.	8cc#\	et	.
=91	=91	=91	=91	=91	=91	=91	=91	=91	=91	=91	=91	=91	=91	=91	=91
8G#\L	8G#\L	nunc	.	4e\	nun	.	8e\L	nunc	.	4b\	nunc	.	4b\	nunc	.
8F#\	8F#\J	.	.	.	.	.	8f#\J	.	.	.	.	.	.	.	.
8E\J	8E\	et	.	8B\	et	.	8g#\	et	.	[>8ee\	et	.	[>8ee\	et	.
!	!	!	!	!	!	!	!	!	!	!	!	!	!LO:LB:g=original	!	!
=92	=92	=92	=92	=92	=92	=92	=92	=92	=92	=92	=92	=92	=92	=92	=92
4F#\	4.F#\	sem-	.	4.A\	sem-	.	4.a\	sem-	.	8ee\]	.	.	8ee\]	.	.
.	.	.	.	.	.	.	.	.	.	4dd#X\	sem-	.	4dd#X\	sem-	.
8F#\	.	.	.	.	.	.	.	.	.	.	.	.	.	.	.
=93	=93	=93	=93	=93	=93	=93	=93	=93	=93	=93	=93	=93	=93	=93	=93
4.E\	4.E\	-per	.	4.B\	-per	.	4.g#\	-per	.	4.ee\	-per	.	4.ee\	-per	.
!	!	!	!	!LO:LB:g=original	!	!	!LO:LB:g=original	!	!	!LO:LB:g=original	!	!	!	!	!
=94	=94	=94	=94	=94	=94	=94	=94	=94	=94	=94	=94	=94	=94	=94	=94
!LO:TX:a:i:t=soli:mod=	!	!	!	!	!	!	!	!	!	!	!	!	!	!	!
!	!LO:TX:b:i:t=17:mod=	!	!	!LO:TX:b:i:t=17:mod=	!	!	!LO:TX:b:i:t=17:mod=	!	!	!LO:TX:b:i:t=2:mod=	!	!	!	!	!
8E\L	1.r	.	.	1.r	.	.	1.r	.	.	2.r	.	.	4.ee\	et	.
8F#\	.	.	.	.	.	.	.	.	.	.	.	.	.	.	.
8G#\J	.	.	.	.	.	.	.	.	.	.	.	.	.	.	.
!LO:LB:g=original	!	!	!	!	!	!	!	!	!	!	!	!	!	!	!
=95	=95	=95	=95	=95	=95	=95	=95	=95	=95	=95	=95	=95	=95	=95	=95
8D#X\L	.	.	.	.	.	.	.	.	.	.	.	.	4.ff#\	in	.
8C#\	.	.	.	.	.	.	.	.	.	.	.	.	.	.	.
8BB\J	.	.	.	.	.	.	.	.	.	.	.	.	.	.	.
=96	=96	=96	=96	=96	=96	=96	=96	=96	=96	=96	=96	=96	=96	=96	=96
!	!	!	!	!	!	!	!	!	!	!LO:TX:a:i:t=Soli:rj:mod=	!	!	!	!LO:MO:mod=sae-	!
8E\L	.	.	.	.	.	.	.	.	.	4.ee\	et	.	8gg#\	Sae-	.
8F#\	.	.	.	.	.	.	.	.	.	.	.	.	8ff#\	-cu-	.
8G#\J	.	.	.	.	.	.	.	.	.	.	.	.	8ee\	-la	.
=97	=97	=97	=97	=97	=97	=97	=97	=97	=97	=97	=97	=97	=97	=97	=97
!	!	!	!	!	!	!	!	!	!	!	!	!	!	!LO:MO:mod=sae-	!
8BB\L	.	.	.	.	.	.	.	.	.	4.ff#\	in	.	8dd#X\L	Sae-	.
8C#\	.	.	.	.	.	.	.	.	.	.	.	.	8cc#\J	.	.
8D#X\J	.	.	.	.	.	.	.	.	.	.	.	.	8b\	-cu-	.
!	!	!	!	!	!	!	!	!	!	!	!	!	!LO:LB:g=original	!	!
=98	=98	=98	=98	=98	=98	=98	=98	=98	=98	=98	=98	=98	=98	=98	=98
!	!	!	!	!	!	!	!	!	!	!	!LO:MO:mod=sae-	!	!	!	!
8E\L	1.r	.	.	1.r	.	.	1.r	.	.	8gg#\	Sae-	.	4.ee\	-lo-	.
8F#\	.	.	.	.	.	.	.	.	.	8ff#\	-cu-	.	.	.	.
8G#\J	.	.	.	.	.	.	.	.	.	8ee\	-la	.	.	.	.
!LO:LB:g=original	!	!	!	!	!	!	!	!	!	!	!	!	!	!	!
=99	=99	=99	=99	=99	=99	=99	=99	=99	=99	=99	=99	=99	=99	=99	=99
!	!	!	!	!	!	!	!	!	!	!	!LO:MO:mod=sae-	!	!	!	!
8BB/L	.	.	.	.	.	.	.	.	.	8dd#X\L	Sae-	.	4.ff#\	-rum	.
8C#/	.	.	.	.	.	.	.	.	.	8cc#\J	.	.	.	.	.
8D#X/J	.	.	.	.	.	.	.	.	.	8b\	-cu-	.	.	.	.
!	!	!	!	!	!	!	!	!	!	!LO:LB:g=original	!	!	!	!	!
=100	=100	=100	=100	=100	=100	=100	=100	=100	=100	=100	=100	=100	=100	=100	=100
!	!	!	!	!	!	!	!	!	!	!	!	!	!	!LO:MO:mod=a-	!
8E\L	.	.	.	.	.	.	.	.	.	4.ee\	-lo-	.	8gg#\L	A-	.
8F#\	.	.	.	.	.	.	.	.	.	.	.	.	8ff#\	.	.
8G#\J	.	.	.	.	.	.	.	.	.	.	.	.	8ee\J	.	.
=101	=101	=101	=101	=101	=101	=101	=101	=101	=101	=101	=101	=101	=101	=101	=101
8BB/L	.	.	.	.	.	.	.	.	.	4.ff#\	-rum	.	8dd#X\L	.	.
8C#/	.	.	.	.	.	.	.	.	.	.	.	.	8cc#\	.	.
8D#X/J	.	.	.	.	.	.	.	.	.	.	.	.	8b\J	.	.
!!LO:MO:ori
=102	=102	=102	=102	=102	=102	=102	=102	=102	=102	=102	=102	=102	=102	=102	=102
!LO:TX:t=P:problem:brak taktów nr 102-103	!	!	!	!	!	!	!	!	!	!	!	!	!	!	!
4.ryy	1.r	.	.	1.r	.	.	1.r	.	.	8gg#\L	a-	.	4.ee\	.	.
.	.	.	.	.	.	.	.	.	.	8ff#\	.	.	.	.	.
.	.	.	.	.	.	.	.	.	.	8ee\J	.	.	.	.	.
!LO:LB:g=original	!	!	!	!	!	!	!	!	!	!	!	!	!	!	!
=103	=103	=103	=103	=103	=103	=103	=103	=103	=103	=103	=103	=103	=103	=103	=103
4.ryy	.	.	.	.	.	.	.	.	.	8dd#X\L	.	.	4.ff#\	.	.
.	.	.	.	.	.	.	.	.	.	8cc#\	.	.	.	.	.
.	.	.	.	.	.	.	.	.	.	8b\J	.	.	.	.	.
!	!	!	!	!	!	!	!	!	!	!	!	!	!LO:LB:g=original	!	!
!!LO:MO:mod
!! =102	=102	=102	=102	=102	=102	=102	=102	=102	=102	=102	=102	=102	=102	=102	=102
!! 8EL	1.r	.	.	1.r	.	.	1.r	.	.	8gg#\L	a-	.	4.ee\	.	.
!! 8F#	.	.	.	.	.	.	.	.	.	8ff#\	.	.	.	.	.
!! 8G#J	.	.	.	.	.	.	.	.	.	8ee\J	.	.	.	.	.
!! !LO:LB:g=original	!	!	!	!	!	!	!	!	!	!	!	!	!	!	!
!! =103	=103	=103	=103	=103	=103	=103	=103	=103	=103	=103	=103	=103	=103	=103	=103
!! 8BBL	.	.	.	.	.	.	.	.	.	8dd#X\L	.	.	4.ff#\	.	.
!! 8C#	.	.	.	.	.	.	.	.	.	8cc#\	.	.	.	.	.
!! 8D#J	.	.	.	.	.	.	.	.	.	8b\J	.	.	.	.	.
!! !	!	!	!	!	!	!	!	!	!	!	!	!	!LO:LB:g=original	!	!
!!LO:MO:end
=104	=104	=104	=104	=104	=104	=104	=104	=104	=104	=104	=104	=104	=104	=104	=104
8E\L	.	.	.	.	.	.	.	.	.	8ee\	.	.	8gg#\L	.	.
8F#\	.	.	.	.	.	.	.	.	.	4ddn\	.	.	8aa\	.	.
8G#\J	.	.	.	.	.	.	.	.	.	.	.	.	8bb\J	.	.
!	!	!	!	!	!	!	!	!	!	!LO:PB:g=original	!	!	!	!	!
=105	=105	=105	=105	=105	=105	=105	=105	=105	=105	=105	=105	=105	=105	=105	=105
8A\L	.	.	.	.	.	.	.	.	.	8cc#\L	.	.	8aa\	.	.
8B\	.	.	.	.	.	.	.	.	.	8dd\	.	.	4ggn\	.	.
8c#\J	.	.	.	.	.	.	.	.	.	[>8ee\J	.	.	.	.	.
=106	=106	=106	=106	=106	=106	=106	=106	=106	=106	=106	=106	=106	=106	=106	=106
4d\	1.r	.	.	1.r	.	.	1.r	.	.	8ee\]	.	.	4.ff#\	.	.
.	.	.	.	.	.	.	.	.	.	[>4dd\	.	.	.	.	.
8B\	.	.	.	.	.	.	.	.	.	.	.	.	.	.	.
=107	=107	=107	=107	=107	=107	=107	=107	=107	=107	=107	=107	=107	=107	=107	=107
4c#\	.	.	.	.	.	.	.	.	.	8dd\]	.	.	4.ee\	.	.
.	.	.	.	.	.	.	.	.	.	[>4cc#\	.	.	.	.	.
8A\	.	.	.	.	.	.	.	.	.	.	.	.	.	.	.
=108	=108	=108	=108	=108	=108	=108	=108	=108	=108	=108	=108	=108	=108	=108	=108
4B\	.	.	.	.	.	.	.	.	.	8cc#\]	.	.	4.dd\	.	.
.	.	.	.	.	.	.	.	.	.	4b\	.	.	.	.	.
8G#\	.	.	.	.	.	.	.	.	.	.	.	.	.	.	.
=109	=109	=109	=109	=109	=109	=109	=109	=109	=109	=109	=109	=109	=109	=109	=109
4A\	.	.	.	.	.	.	.	.	.	8a\L	.	.	8cc#\L	.	.
.	.	.	.	.	.	.	.	.	.	8b\	.	.	8dd\	.	.
8AA/	.	.	.	.	.	.	.	.	.	8cc#\J	.	.	8ee\J	.	.
!LO:LB:g=original	!	!	!	!	!	!	!	!	!	!LO:LB:g=original	!	!	!LO:LB:g=original	!	!
=110	=110	=110	=110	=110	=110	=110	=110	=110	=110	=110	=110	=110	=110	=110	=110
!LO:TX:t=P:problem=mixed beam	!	!	!	!	!	!	!	!	!	!	!	!	!	!	!
8D\L	4.r	.	.	4.r	.	.	4.r	.	.	8b\L	.	.	8dd\L	.	.
8E\	.	.	.	.	.	.	.	.	.	8a\	.	.	8cc#\	.	.
8EE/J	.	.	.	.	.	.	.	.	.	8g#\J	.	.	8b\J	.	.
!	!LO:LB:g=original	!	!	!	!	!	!	!	!	!	!	!	!	!	!
=111	=111	=111	=111	=111	=111	=111	=111	=111	=111	=111	=111	=111	=111	=111	=111
!!LO:TX:a:t= :mod=Tutti
!LO:TX:a:i:t=Tutti:mod=	!	!	!	!	!LO:MO:mod=et	!	!	!	!	!	!	!	!	!	!
[<4.AA/	4.A\	et	.	4.c#\	Et	.	4.e\	et	.	4a\	-men	.	4a\	-men	.
.	.	.	.	.	.	.	.	.	.	8r	.	.	8r	.	.
=112	=112	=112	=112	=112	=112	=112	=112	=112	=112	=112	=112	=112	=112	=112	=112
4.AA/]	4.A\	in	.	4.d\	in	.	4.f#\	in	.	4a\	et	.	4a\	et	.
.	.	.	.	.	.	.	.	.	.	8a\	in	.	8a\	in	.
=113	=113	=113	=113	=113	=113	=113	=113	=113	=113	=113	=113	=113	=113	=113	=113
!	!	!LO:MO:mod=sae-	!	!	!	!	!	!	!	!	!	!	!	!	!
8AA/L	8A\	Sae-	.	8c#\	sae-	.	8e\	sae-	.	8a\	sae-	.	8a\	sae-	.
8BB/	8B\	-cu-	.	8B\	-cu-	.	8d\	-cu-	.	8g#\	-cu-	.	8g#\	-cu-	.
8C#/J	8c#\	-la	.	8A\	-la	.	8e\	-la	.	8a\	-la	.	8a\	-la	.
=114	=114	=114	=114	=114	=114	=114	=114	=114	=114	=114	=114	=114	=114	=114	=114
!	!	!LO:MO:mod=sae-	!	!	!LO:MO:mod=sae-	!	!	!	!	!	!	!	!	!	!
8D\	8d\	Sae-	.	8d\	Sae-	.	8f#\	sae-	.	8a\	sae-	.	8a\	sae-	.
4GG#/	4G#\	-cu-	.	4d\	-cu-	.	4e\	-cu-	.	4b\	-cu-	.	4b\	-cu-	.
!LO:LB:g=original	!	!	!	!LO:LB:g=original	!	!	!	!	!	!LO:LB:g=original	!	!	!LO:LB:g=original	!	!
=115	=115	=115	=115	=115	=115	=115	=115	=115	=115	=115	=115	=115	=115	=115	=115
4.AA/	8A\	-lo-	.	8c#\	-lo-	.	8e\	-lo-	.	8a\	-lo-	.	8a\	-lo-	.
.	4AA/	-rum	.	4c#\	-rum	.	4e\	-rum	.	4a\	-rum	.	4a\	-rum	.
!	!	!	!	!	!	!	!LO:LB:g=original	!	!	!	!	!	!	!	!
=116	=116	=116	=116	=116	=116	=116	=116	=116	=116	=116	=116	=116	=116	=116	=116
!	!LO:TX:b:i:t=13:mod=	!	!	!LO:TX:b:i:t=14:mod=	!	!	!LO:TX:b:i:t=13:mod=	!	!	!	!	!	!LO:TX:a:i:t=soli:rj:mod=	!	!
4.A\	1.r	.	.	1.r	.	.	1.r	.	.	4.cc#\	a-	.	8ee\L	a-	.
.	.	.	.	.	.	.	.	.	.	.	.	.	8aa\	.	.
.	.	.	.	.	.	.	.	.	.	.	.	.	8ee\J	.	.
=117	=117	=117	=117	=117	=117	=117	=117	=117	=117	=117	=117	=117	=117	=117	=117
4.B\	.	.	.	.	.	.	.	.	.	8.b\L	.	.	8.dd\L	.	.
.	.	.	.	.	.	.	.	.	.	16a\K	.	.	16cc#\K	.	.
.	.	.	.	.	.	.	.	.	.	8b\J	.	.	8dd\J	.	.
=118	=118	=118	=118	=118	=118	=118	=118	=118	=118	=118	=118	=118	=118	=118	=118
4.G#\	.	.	.	.	.	.	.	.	.	8b\L	.	.	8dd\L	.	.
.	.	.	.	.	.	.	.	.	.	8dd\	.	.	8bb\	.	.
.	.	.	.	.	.	.	.	.	.	8b\J	.	.	8dd\J	.	.
=119	=119	=119	=119	=119	=119	=119	=119	=119	=119	=119	=119	=119	=119	=119	=119
4.A\	.	.	.	.	.	.	.	.	.	8.a\L	.	.	8.cc#\L	.	.
.	.	.	.	.	.	.	.	.	.	16g#\K	.	.	16b\K	.	.
.	.	.	.	.	.	.	.	.	.	8a\J	.	.	8cc#\J	.	.
!	!	!	!	!	!	!	!	!	!	!LO:LB:g=original	!	!	!LO:PB:g=original	!	!
=120	=120	=120	=120	=120	=120	=120	=120	=120	=120	=120	=120	=120	=120	=120	=120
4.AA/	1.r	.	.	1.r	.	.	1.r	.	.	8ee\L	.	.	4.cc#\	.	.
.	.	.	.	.	.	.	.	.	.	8aa\	.	.	.	.	.
.	.	.	.	.	.	.	.	.	.	8ee\J	.	.	.	.	.
!LO:PB:g=original	!	!	!	!	!	!	!	!	!	!	!	!	!	!	!
=121	=121	=121	=121	=121	=121	=121	=121	=121	=121	=121	=121	=121	=121	=121	=121
4.BB/	.	.	.	.	.	.	.	.	.	8.dd\L	.	.	8.b\L	.	.
.	.	.	.	.	.	.	.	.	.	16cc#\K	.	.	16a\K	.	.
.	.	.	.	.	.	.	.	.	.	8dd\J	.	.	8b\J	.	.
=122	=122	=122	=122	=122	=122	=122	=122	=122	=122	=122	=122	=122	=122	=122	=122
4.GG#/	.	.	.	.	.	.	.	.	.	8dd\L	.	.	8b\L	.	.
.	.	.	.	.	.	.	.	.	.	8bb\	.	.	8dd\	.	.
.	.	.	.	.	.	.	.	.	.	8dd\J	.	.	8b\J	.	.
=123	=123	=123	=123	=123	=123	=123	=123	=123	=123	=123	=123	=123	=123	=123	=123
4.AA/	.	.	.	.	.	.	.	.	.	8.cc#\L	.	.	8.a\L	.	.
.	.	.	.	.	.	.	.	.	.	16b\K	.	.	16g#\K	.	.
.	.	.	.	.	.	.	.	.	.	8cc#\J	.	.	8a\J	.	.
=124	=124	=124	=124	=124	=124	=124	=124	=124	=124	=124	=124	=124	=124	=124	=124
8GG#/L	1.r	.	.	1.r	.	.	1.r	.	.	4.dd\	.	.	4.ff#\	.	.
8GG#/	.	.	.	.	.	.	.	.	.	.	.	.	.	.	.
8GG#/J	.	.	.	.	.	.	.	.	.	.	.	.	.	.	.
!	!	!	!	!	!	!	!	!	!	!LO:LB:g=original	!	!	!	!	!
=125	=125	=125	=125	=125	=125	=125	=125	=125	=125	=125	=125	=125	=125	=125	=125
8AA/L	.	.	.	.	.	.	.	.	.	8cc#\L	.	.	8ee\L	.	.
8AA/	.	.	.	.	.	.	.	.	.	8b\	.	.	8dd\	.	.
8AA/J	.	.	.	.	.	.	.	.	.	8a\J	.	.	8cc#\J	.	.
!LO:LB:g=original	!	!	!	!	!	!	!	!	!	!	!	!	!LO:LB:g=original	!	!
=126	=126	=126	=126	=126	=126	=126	=126	=126	=126	=126	=126	=126	=126	=126	=126
8E\L	.	.	.	.	.	.	.	.	.	8g#\L	.	.	8b\L	.	.
8E\	.	.	.	.	.	.	.	.	.	8a\	.	.	8cc#\	.	.
8E\J	.	.	.	.	.	.	.	.	.	8b\J	.	.	8dd\J	.	.
=127	=127	=127	=127	=127	=127	=127	=127	=127	=127	=127	=127	=127	=127	=127	=127
8AA/L	.	.	.	.	.	.	.	.	.	8a\L	.	.	8cc#\L	.	.
8AA/	.	.	.	.	.	.	.	.	.	8b\	.	.	8dd\	.	.
8AA/J	.	.	.	.	.	.	.	.	.	8cc#\J	.	.	8ee\J	.	.
=128	=128	=128	=128	=128	=128	=128	=128	=128	=128	=128	=128	=128	=128	=128	=128
!LO:TX:t=P:problem=mixed beam	!	!	!	!	!	!	!	!	!	!	!	!	!	!	!
8D\L	4.r	.	.	2.r	.	.	4.r	.	.	8b\L	.	.	8dd\L	.	.
8E\	.	.	.	.	.	.	.	.	.	8a\	.	.	8cc#\	.	.
8EE/J	.	.	.	.	.	.	.	.	.	8g#\J	.	.	8b\J	.	.
!	!LO:LB:g=original	!	!	!	!	!	!	!	!	!	!	!	!	!	!
=129	=129	=129	=129	=129	=129	=129	=129	=129	=129	=129	=129	=129	=129	=129	=129
!	!LO:MO:mod=4r	!	!	!	!	!	!LO:MO:mod=4r	!	!	!	!	!	!	!	!
4AA/	8r	.	.	.	.	.	8r	.	.	4a\	-men	.	4a\	-men	.
!	!LO:MO:mod=.	!	!	!	!	!	!LO:MO:mod=.	!	!	!	!	!	!	!	!
.	8r	.	.	.	.	.	8r	.	.	.	.	.	.	.	.
!	!	!LO:MO:mod=a-	!	!	!	!	!	!	!	!	!	!	!	!	!
8A\	8A\	A-	.	.	.	.	8a\	a-	.	8cc#\	a-	.	8cc#\	a-	.
!LO:LB:g=original	!	!	!	!	!	!	!	!	!	!LO:LB:g=original	!	!	!	!	!
=130	=130	=130	=130	=130	=130	=130	=130	=130	=130	=130	=130	=130	=130	=130	=130
!	!	!	!	!LO:MO:mod=4r	!	!	!	!	!	!	!	!	!	!	!
8G#\L	8G#\L	.	.	8r	.	.	8e\L	.	.	4.b\	.	.	4.b\	.	.
!	!	!	!	!LO:MO:mod=.	!	!	!	!	!	!	!	!	!	!	!
8F#\	8F#\	.	.	8r	.	.	8f#\	.	.	.	.	.	.	.	.
!	!	!	!	!	!LO:MO:mod=a-	!	!	!	!	!	!	!	!	!	!
8E\J	8E\J	.	.	8e\	A-	.	8g#\J	.	.	.	.	.	.	.	.
=131	=131	=131	=131	=131	=131	=131	=131	=131	=131	=131	=131	=131	=131	=131	=131
4A\	4A\	.	.	8c#\L	.	.	4a\	.	.	4cc#\	.	.	4cc#\	.	.
.	.	.	.	8d\	.	.	.	.	.	.	.	.	.	.	.
8A\	8A\	.	.	8e\J	.	.	8a\	.	.	8cc#\	.	.	8cc#\	.	.
!	!	!	!	!	!	!	!	!	!	!	!	!	!LO:LB:g=original	!	!
=132	=132	=132	=132	=132	=132	=132	=132	=132	=132	=132	=132	=132	=132	=132	=132
8G#\L	8G#\L	.	.	[>4.e\	.	.	8e\L	.	.	4.b\	.	.	4.b\	.	.
8F#\	8F#\	.	.	.	.	.	8f#\	.	.	.	.	.	.	.	.
8E\J	8E\J	.	.	.	.	.	8g#\J	.	.	.	.	.	.	.	.
!	!	!	!	!LO:LB:g=original	!	!	!LO:LB:g=original	!	!	!	!	!	!	!	!
=133	=133	=133	=133	=133	=133	=133	=133	=133	=133	=133	=133	=133	=133	=133	=133
4A\	4A\	.	.	4.e\]	.	.	[>4.a\	.	.	8cc#\L	.	.	8cc#\L	.	.
.	.	.	.	.	.	.	.	.	.	8dd\	.	.	8dd\	.	.
8C#/	8C#/	.	.	.	.	.	.	.	.	8ee\J	.	.	8ee\J	.	.
!LO:LB:g=original	!	!	!	!	!	!	!	!	!	!	!	!	!	!	!
=134	=134	=134	=134	=134	=134	=134	=134	=134	=134	=134	=134	=134	=134	=134	=134
8D\L	8D\L	.	.	4.f#\	.	.	4.a\]	.	.	[>4.dd\	.	.	[>4.dd\	.	.
8E\	8E\	.	.	.	.	.	.	.	.	.	.	.	.	.	.
8F#\J	8F#\J	.	.	.	.	.	.	.	.	.	.	.	.	.	.
!	!LO:LB:g=original	!	!	!	!	!	!	!	!	!	!	!	!	!	!
=135	=135	=135	=135	=135	=135	=135	=135	=135	=135	=135	=135	=135	=135	=135	=135
4E\	4E\	.	.	4B\	.	.	4g#\	.	.	4dd\]	.	.	4dd\]	.	.
8A\	8A\	-men	.	16c#\LL	-men	.	[>8a\	-men	.	8cc#\	-men	.	8cc#\	-men	.
.	.	.	.	16d\JJ	.	.	.	.	.	.	.	.	.	.	.
!	!	!	!	!	!	!	!	!	!	!LO:LB:g=original	!	!	!	!	!
=136	=136	=136	=136	=136	=136	=136	=136	=136	=136	=136	=136	=136	=136	=136	=136
8E\L	4.E\	a-	.	4.e\	a-	.	8a\]	.	.	4.b\	a-	.	4.b\	a-	.
8E\	.	.	.	.	.	.	4g#\	a-	.	.	.	.	.	.	.
8E\J	.	.	.	.	.	.	.	.	.	.	.	.	.	.	.
=137	=137	=137	=137	=137	=137	=137	=137	=137	=137	=137	=137	=137	=137	=137	=137
8A\L	4.A\	-men	.	4.e\	-men	.	4.a\	-men	.	4.cc#\	-men	.	4.cc#\	-men	.
8A\	.	.	.	.	.	.	.	.	.	.	.	.	.	.	.
8A\J	.	.	.	.	.	.	.	.	.	.	.	.	.	.	.
!LO:LB:g=original	!	!	!	!	!	!	!LO:LB:g=original	!	!	!	!	!	!LO:LB:g=original	!	!
=138	=138	=138	=138	=138	=138	=138	=138	=138	=138	=138	=138	=138	=138	=138	=138
4.E\	4.E\	a-	.	4.e\	a-	.	4.g#\	a-	.	4.b\	a-	.	4.b\	a-	.
=139	=139	=139	=139	=139	=139	=139	=139	=139	=139	=139	=139	=139	=139	=139	=139
4.AA/	4.AA/	-men	.	4.e\	-men	.	4.a\	-men	.	4.a\	-men	.	4.a\	-men	.
==	==	==	==	==	==	==	==	==	==	==	==	==	==	==	==
*-	*-	*-	*-	*-	*-	*-	*-	*-	*-	*-	*-	*-	*-	*-	*-
!!!system-decoration: [(g1)]<s6>
!!!RDF**kern: > = above
!!!RDF**kern: < = below
!!!filter-modern: shed -e "s/:TX:t=P:/:tx:t=p:/L" | shed -e "s/:rj/:RJ/L" | sic -sq | modori -m | autostem -r | tie -s | humtr -p | shed -e "s/yy//" | shed -k -e "s/[<>]//g"
!!!ENC: Anastazja Marusiak
!!!END: 2021-03-17
!!!EED: Wojciech Jakubiak-Danek
!!!EEV: 2021-04-09
!!!ENC-modern: Andrzej Kubiczek
!!!END-modern: 2022-06-17
